;FLAVOR:Marlin
;TIME:5687
;Filament used: 3.88072m
;Layer height: 0.2
;MINX:70.5
;MINY:88
;MINZ:0.2
;MAXX:164.5
;MAXY:147
;MAXZ:14
;Generated with Cura_SteamEngine 4.6.1
M140 S50
M105
M190 S50
M104 S200
M105
M109 S200
M82 ;absolute extrusion mode
; Ender 3 Custom Start G-code
G92 E0 ; Reset Extruder
G28 ; Home all axes
G1 Z2.0 F3000 ; Move Z Axis up little to prevent scratching of Heat Bed
G1 X0.1 Y20 Z0.3 F5000.0 ; Move to start position
G1 X0.1 Y200.0 Z0.3 F1500.0 E15 ; Draw the first line
G1 X0.4 Y200.0 Z0.3 F5000.0 ; Move to side a little
G1 X0.4 Y20 Z0.3 F1500.0 E30 ; Draw the second line
G92 E0 ; Reset Extruder
G1 Z2.0 F3000 ; Move Z Axis up little to prevent scratching of Heat Bed
G1 X5 Y20 Z0.3 F5000.0 ; Move over to prevent blob squish
G92 E0
G92 E0
G1 F2700 E-5
;LAYER_COUNT:70
;LAYER:0
M107
G0 F6000 X151.637 Y88.811 Z0.2
;TYPE:SKIRT
G1 F2700 E0
G1 F1200 X152.445 Y88.855 E0.02691
G1 X153.18 Y88.935 E0.0515
G1 X154.071 Y89.086 E0.08156
G1 X154.988 Y89.329 E0.11311
G1 X155.21 Y89.399 E0.12086
G1 X155.633 Y89.542 E0.13571
G1 X155.839 Y89.617 E0.143
G1 X156.673 Y89.964 E0.17304
G1 X157.691 Y90.513 E0.21151
G1 X158.07 Y90.746 E0.22631
G1 X158.818 Y91.252 E0.25635
G1 X159.708 Y91.997 E0.29495
G1 X159.854 Y92.134 E0.30161
G1 X160.172 Y92.446 E0.31643
G1 X160.337 Y92.615 E0.32428
G1 X160.939 Y93.289 E0.35434
G1 X161.482 Y94.018 E0.38457
G1 X161.623 Y94.226 E0.39293
G1 X161.895 Y94.649 E0.40966
G1 X161.999 Y94.82 E0.41631
G1 X162.433 Y95.611 E0.44632
G1 X162.89 Y96.691 E0.48533
G1 X163.046 Y97.128 E0.50076
G1 X163.312 Y97.991 E0.5308
G1 X163.5 Y98.874 E0.56082
G1 X163.575 Y99.407 E0.57872
G1 X163.624 Y99.839 E0.59319
G1 X163.688 Y100.834 E0.62635
G1 X163.7 Y101.712 E0.65555
G1 X163.699 Y133.417 E1.71007
G1 X163.689 Y134.133 E1.73388
G1 X163.629 Y135.102 E1.76617
G1 X163.58 Y135.549 E1.78113
G1 X163.442 Y136.442 E1.81118
G1 X163.226 Y137.319 E1.84122
G1 X163.071 Y137.8 E1.85803
G1 X162.924 Y138.221 E1.87286
G1 X162.589 Y139.06 E1.90291
G1 X162.04 Y140.107 E1.94223
G1 X161.651 Y140.734 E1.96677
G1 X161.13 Y141.472 E1.99682
G1 X160.459 Y142.254 E2.03109
G1 X160.306 Y142.415 E2.03848
G1 X159.87 Y142.851 E2.05899
G1 X159.196 Y143.453 E2.08904
G1 X158.19 Y144.177 E2.13027
G1 X157.813 Y144.415 E2.1451
G1 X157.029 Y144.863 E2.17513
G1 X155.863 Y145.372 E2.21744
G1 X155.619 Y145.461 E2.22608
G1 X154.691 Y145.751 E2.25842
G1 X154.391 Y145.829 E2.26873
G1 X153.507 Y146.017 E2.29879
G1 X152.82 Y146.108 E2.32184
G1 X152.504 Y146.139 E2.3324
G1 X151.663 Y146.187 E2.36042
G1 X150.782 Y146.199 E2.38972
G1 X84.207 Y146.2 E4.60402
G1 X84.061 Y146.199 E4.60887
G1 X83.364 Y146.189 E4.63206
G1 X82.401 Y146.13 E4.66415
G1 X81.953 Y146.081 E4.67914
G1 X81.06 Y145.943 E4.70919
G1 X80.184 Y145.726 E4.73921
G1 X79.7 Y145.571 E4.75611
G1 X79.279 Y145.424 E4.77094
G1 X78.44 Y145.089 E4.80099
G1 X77.38 Y144.532 E4.84081
G1 X76.777 Y144.158 E4.86442
G1 X76.038 Y143.638 E4.89447
G1 X75.245 Y142.957 E4.92924
G1 X75.081 Y142.801 E4.93676
G1 X74.673 Y142.394 E4.95593
G1 X74.07 Y141.722 E4.98596
G1 X73.347 Y140.725 E5.02692
G1 X73.104 Y140.343 E5.04198
G1 X72.653 Y139.56 E5.07204
G1 X72.128 Y138.363 E5.11551
G1 X72.039 Y138.119 E5.12415
G1 X71.751 Y137.199 E5.15621
G1 X71.673 Y136.9 E5.16649
G1 X71.484 Y136.017 E5.19652
G1 X71.392 Y135.321 E5.21987
G1 X71.36 Y134.995 E5.23077
G1 X71.322 Y134.466 E5.24841
G1 X71.312 Y134.248 E5.25567
G1 X71.301 Y133.822 E5.26984
G1 X71.3 Y133.574 E5.27809
G1 X71.301 Y101.561 E6.34284
G1 X71.311 Y100.863 E6.36606
G1 X71.352 Y100.081 E6.39211
G1 X71.372 Y99.862 E6.39942
G1 X71.439 Y99.284 E6.41878
G1 X71.594 Y98.394 E6.44882
G1 X71.829 Y97.512 E6.47918
G1 X71.899 Y97.29 E6.48692
G1 X72.042 Y96.867 E6.50177
G1 X72.117 Y96.661 E6.50907
G1 X72.464 Y95.827 E6.53911
G1 X73.019 Y94.799 E6.57797
G1 X73.252 Y94.421 E6.59274
G1 X73.759 Y93.674 E6.62276
G1 X74.448 Y92.846 E6.65859
G1 X74.584 Y92.699 E6.66525
G1 X74.967 Y92.307 E6.68348
G1 X75.137 Y92.142 E6.69136
G1 X75.812 Y91.542 E6.7214
G1 X76.547 Y90.998 E6.75181
G1 X76.764 Y90.852 E6.76051
G1 X77.355 Y90.481 E6.78372
G1 X78.147 Y90.048 E6.81374
G1 X79.302 Y89.567 E6.85535
G1 X79.721 Y89.422 E6.8701
G1 X80.587 Y89.165 E6.90014
G1 X81.89 Y88.928 E6.94419
G1 X82.324 Y88.878 E6.95872
G1 X83.335 Y88.812 E6.99242
G1 X84.212 Y88.8 E7.02159
G1 X150.793 Y88.8 E9.23609
G1 X150.939 Y88.801 E9.24094
G1 X151.637 Y88.811 E9.26416
G0 F6000 X151.643 Y88.411
G1 F1200 X152.482 Y88.456 E9.29211
G1 X152.695 Y88.476 E9.29922
G1 X153.23 Y88.538 E9.31713
G1 X154.138 Y88.691 E9.34776
G1 X155.109 Y88.948 E9.38117
G1 X155.331 Y89.018 E9.38891
G1 X155.975 Y89.242 E9.41159
G1 X156.826 Y89.594 E9.44222
G1 X157.9 Y90.172 E9.48278
G1 X158.279 Y90.405 E9.49758
G1 X159.042 Y90.921 E9.52822
G1 X159.981 Y91.705 E9.5689
G1 X160.127 Y91.842 E9.57556
G1 X160.459 Y92.167 E9.59102
G1 X160.624 Y92.336 E9.59887
G1 X161.237 Y93.022 E9.62947
G1 X161.813 Y93.793 E9.66148
G1 X161.954 Y94.001 E9.66984
G1 X162.237 Y94.441 E9.68724
G1 X162.341 Y94.612 E9.69389
G1 X162.784 Y95.419 E9.72451
G1 X163.267 Y96.556 E9.7656
G1 X163.423 Y96.993 E9.78103
G1 X163.695 Y97.873 E9.81167
G1 X163.889 Y98.773 E9.84229
G1 X163.972 Y99.362 E9.86207
G1 X164.021 Y99.794 E9.87653
G1 X164.088 Y100.828 E9.911
G1 X164.1 Y101.712 E9.9404
G1 X164.099 Y133.423 E10.99511
G1 X164.089 Y134.139 E11.01893
G1 X164.027 Y135.146 E11.05249
G1 X163.978 Y135.593 E11.06744
G1 X163.838 Y136.503 E11.09807
G1 X163.62 Y137.397 E11.12867
G1 X163.448 Y137.932 E11.14736
G1 X163.301 Y138.353 E11.1622
G1 X162.961 Y139.208 E11.1928
G1 X162.383 Y140.313 E11.23428
G1 X161.988 Y140.95 E11.2592
G1 X161.458 Y141.703 E11.28983
G1 X160.749 Y142.53 E11.32606
G1 X160.596 Y142.691 E11.33345
G1 X160.149 Y143.138 E11.35447
G1 X159.463 Y143.751 E11.38507
G1 X158.404 Y144.515 E11.42851
G1 X158.027 Y144.753 E11.44333
G1 X157.227 Y145.211 E11.47399
G1 X156 Y145.748 E11.51854
G1 X155.756 Y145.837 E11.52718
G1 X154.791 Y146.138 E11.5608
G1 X154.491 Y146.216 E11.57111
G1 X153.591 Y146.409 E11.60173
G1 X152.859 Y146.506 E11.62629
G1 X152.543 Y146.537 E11.63685
G1 X151.669 Y146.587 E11.66596
G1 X150.782 Y146.599 E11.69547
G1 X84.207 Y146.6 E13.90976
G1 X84.055 Y146.599 E13.91482
G1 X83.358 Y146.589 E13.938
G1 X82.357 Y146.527 E13.97136
G1 X81.909 Y146.478 E13.98635
G1 X81 Y146.338 E14.01694
G1 X80.105 Y146.12 E14.04758
G1 X79.568 Y145.948 E14.06633
G1 X79.147 Y145.801 E14.08116
G1 X78.292 Y145.461 E14.11177
G1 X77.173 Y144.875 E14.15378
G1 X76.561 Y144.495 E14.17774
G1 X75.808 Y143.966 E14.20834
G1 X74.969 Y143.247 E14.2451
G1 X74.805 Y143.091 E14.25262
G1 X74.388 Y142.675 E14.27221
G1 X73.772 Y141.99 E14.30285
G1 X73.009 Y140.939 E14.34605
G1 X72.766 Y140.557 E14.36111
G1 X72.306 Y139.76 E14.39172
G1 X71.752 Y138.5 E14.4375
G1 X71.663 Y138.256 E14.44613
G1 X71.364 Y137.3 E14.47945
G1 X71.286 Y137.001 E14.48973
G1 X71.093 Y136.101 E14.52034
G1 X70.994 Y135.361 E14.54517
G1 X70.962 Y135.035 E14.55607
G1 X70.922 Y134.485 E14.57441
G1 X70.912 Y134.267 E14.58167
G1 X70.901 Y133.824 E14.59641
G1 X70.9 Y133.576 E14.60466
G1 X70.901 Y101.555 E15.66968
G1 X70.911 Y100.857 E15.6929
G1 X70.954 Y100.045 E15.71994
G1 X70.974 Y99.826 E15.72726
G1 X71.043 Y99.234 E15.74708
G1 X71.199 Y98.326 E15.77772
G1 X71.448 Y97.391 E15.8099
G1 X71.518 Y97.169 E15.81765
G1 X71.742 Y96.525 E15.84033
G1 X72.094 Y95.674 E15.87096
G1 X72.679 Y94.589 E15.91195
G1 X72.912 Y94.211 E15.92672
G1 X73.428 Y93.449 E15.95733
G1 X74.154 Y92.574 E15.99515
G1 X74.29 Y92.427 E16.00181
G1 X74.688 Y92.02 E16.02074
G1 X74.858 Y91.855 E16.02862
G1 X75.546 Y91.243 E16.05925
G1 X76.324 Y90.666 E16.09146
G1 X76.541 Y90.52 E16.10016
G1 X77.147 Y90.139 E16.12397
G1 X77.955 Y89.697 E16.1546
G1 X79.171 Y89.189 E16.19843
G1 X79.59 Y89.044 E16.21318
G1 X80.473 Y88.781 E16.24382
G1 X81.375 Y88.595 E16.27446
G1 X81.844 Y88.531 E16.2902
G1 X82.278 Y88.481 E16.30473
G1 X83.329 Y88.412 E16.33976
G1 X84.212 Y88.4 E16.36913
G1 X150.793 Y88.4 E18.58363
G1 X150.945 Y88.401 E18.58868
G1 X151.643 Y88.411 E18.6119
G0 F6000 X151.649 Y88.011
G1 F1200 X152.519 Y88.058 E18.64088
G1 X153.279 Y88.141 E18.66631
G1 X154.204 Y88.297 E18.69751
G1 X155.229 Y88.566 E18.73275
G1 X155.451 Y88.636 E18.7405
G1 X156.112 Y88.866 E18.76377
G1 X156.979 Y89.224 E18.79497
G1 X158.11 Y89.831 E18.83766
G1 X158.489 Y90.064 E18.85246
G1 X159.266 Y90.589 E18.88365
G1 X160.255 Y91.414 E18.92649
G1 X160.401 Y91.551 E18.93315
G1 X160.745 Y91.888 E18.94916
G1 X160.91 Y92.057 E18.95702
G1 X161.536 Y92.755 E18.9882
G1 X162.144 Y93.569 E19.022
G1 X162.285 Y93.777 E19.03035
G1 X162.682 Y94.404 E19.05504
G1 X163.135 Y95.225 E19.08622
G1 X163.644 Y96.422 E19.12949
G1 X163.8 Y96.859 E19.14492
G1 X164.077 Y97.755 E19.17611
G1 X164.277 Y98.671 E19.2073
G1 X164.37 Y99.317 E19.229
G1 X164.419 Y99.749 E19.24346
G1 X164.488 Y100.822 E19.27923
G1 X164.5 Y101.712 E19.30883
G1 X164.499 Y133.429 E20.36374
G1 X164.489 Y134.145 E20.38756
G1 X164.424 Y135.19 E20.42238
G1 X164.375 Y135.637 E20.43734
G1 X164.234 Y136.564 E20.46853
G1 X164.013 Y137.475 E20.4997
G1 X163.826 Y138.064 E20.52026
G1 X163.679 Y138.485 E20.53509
G1 X163.332 Y139.357 E20.5663
G1 X162.726 Y140.518 E20.60986
G1 X162.324 Y141.166 E20.63523
G1 X161.785 Y141.933 E20.66641
G1 X161.039 Y142.806 E20.7046
G1 X160.886 Y142.967 E20.71199
G1 X160.428 Y143.424 E20.73351
G1 X159.73 Y144.05 E20.76469
G1 X158.617 Y144.854 E20.81036
G1 X158.24 Y145.092 E20.82519
G1 X157.426 Y145.558 E20.85638
G1 X156.576 Y145.953 E20.88756
G1 X156.137 Y146.124 E20.90323
G1 X155.893 Y146.213 E20.91186
G1 X154.892 Y146.525 E20.94674
G1 X154.592 Y146.603 E20.95705
G1 X153.675 Y146.8 E20.98824
G1 X152.898 Y146.904 E21.01432
G1 X152.582 Y146.935 E21.02488
G1 X151.675 Y146.987 E21.05509
G1 X150.782 Y146.999 E21.0848
G1 X84.207 Y147 E23.29909
G1 X84.049 Y146.999 E23.30435
G1 X83.352 Y146.989 E23.32753
G1 X82.314 Y146.925 E23.36212
G1 X81.866 Y146.876 E23.37711
G1 X80.939 Y146.734 E23.4083
G1 X80.027 Y146.514 E23.43951
G1 X79.436 Y146.326 E23.46013
G1 X79.015 Y146.179 E23.47496
G1 X78.143 Y145.832 E23.50618
G1 X76.967 Y145.218 E23.5503
G1 X76.345 Y144.832 E23.57465
G1 X75.578 Y144.293 E23.60583
G1 X74.694 Y143.537 E23.64452
G1 X74.53 Y143.381 E23.65205
G1 X74.102 Y142.955 E23.67213
G1 X73.474 Y142.258 E23.70334
G1 X72.672 Y141.154 E23.74872
G1 X72.429 Y140.772 E23.76378
G1 X71.96 Y139.96 E23.79497
G1 X71.561 Y139.111 E23.82617
G1 X71.376 Y138.637 E23.84309
G1 X71.287 Y138.393 E23.85173
G1 X70.977 Y137.401 E23.8863
G1 X70.899 Y137.102 E23.89658
G1 X70.701 Y136.185 E23.92778
G1 X70.596 Y135.4 E23.95412
G1 X70.564 Y135.074 E23.96501
G1 X70.523 Y134.503 E23.98406
G1 X70.513 Y134.285 E23.99131
G1 X70.501 Y133.825 E24.00662
G1 X70.5 Y133.577 E24.01487
G1 X70.501 Y101.549 E25.08012
G1 X70.511 Y100.851 E25.10334
G1 X70.556 Y100.009 E25.13139
G1 X70.576 Y99.79 E25.1387
G1 X70.646 Y99.183 E25.15902
G1 X70.805 Y98.258 E25.19024
G1 X71.066 Y97.271 E25.2242
G1 X71.136 Y97.049 E25.23194
G1 X71.366 Y96.388 E25.25522
G1 X71.724 Y95.521 E25.28641
G1 X72.338 Y94.379 E25.32954
G1 X72.571 Y94.001 E25.34431
G1 X73.097 Y93.224 E25.37552
G1 X73.861 Y92.303 E25.41532
G1 X73.997 Y92.156 E25.42198
G1 X74.41 Y91.733 E25.44164
G1 X74.58 Y91.568 E25.44952
G1 X75.28 Y90.944 E25.48071
G1 X76.101 Y90.334 E25.51473
G1 X76.318 Y90.188 E25.52343
G1 X76.94 Y89.797 E25.54786
G1 X77.762 Y89.346 E25.57905
G1 X79.041 Y88.811 E25.62516
G1 X79.46 Y88.666 E25.6399
G1 X80.358 Y88.397 E25.67108
G1 X81.276 Y88.206 E25.70227
G1 X81.798 Y88.133 E25.7198
G1 X82.232 Y88.083 E25.73433
G1 X83.323 Y88.012 E25.7707
G1 X84.212 Y88 E25.80027
G1 X150.793 Y88 E28.01476
G1 X150.951 Y88.001 E28.02001
G1 X151.649 Y88.011 E28.04323
G1 F2700 E23.04323
;MESH:ms_bottom_bt.stl
G0 F6000 X151.471 Y98.336
G0 X151.472 Y99.42
G0 X83.225 Y99.806
G0 X82.738 Y100.041
G0 X82.397 Y100.467
G0 X82.271 Y101.051
G0 X82.309 Y134.276
G0 X82.499 Y134.672
G0 X83.19 Y135.361
;TYPE:WALL-INNER
G1 F2700 E28.04323
G1 F1200 X82.897 Y135.259 E28.05355
G1 X82.631 Y135.093 E28.06398
G1 X82.41 Y134.873 E28.07435
G1 X82.244 Y134.61 E28.0847
G1 X82.141 Y134.312 E28.09518
G1 X82.1 Y133.923 E28.10819
G1 X82.1 Y101.039 E29.20192
G1 X82.139 Y100.687 E29.2137
G1 X82.243 Y100.391 E29.22413
G1 X82.405 Y100.133 E29.23427
G1 X82.631 Y99.906 E29.24492
G1 X82.891 Y99.743 E29.25513
G1 X83.187 Y99.639 E29.26556
G1 X83.539 Y99.6 E29.27734
G1 X151.461 Y99.6 E31.53643
G1 X151.813 Y99.639 E31.54821
G1 X152.109 Y99.743 E31.55865
G1 X152.367 Y99.905 E31.56878
G1 X152.594 Y100.131 E31.57944
G1 X152.757 Y100.391 E31.58964
G1 X152.861 Y100.687 E31.60008
G1 X152.9 Y101.039 E31.61186
G1 X152.9 Y133.96 E32.70681
G1 X152.861 Y134.31 E32.71853
G1 X152.759 Y134.603 E32.72884
G1 X152.593 Y134.869 E32.73927
G1 X152.373 Y135.09 E32.74965
G1 X152.11 Y135.256 E32.75999
G1 X151.812 Y135.359 E32.77048
G1 X151.47 Y135.399 E32.78193
G1 X83.987 Y135.4 E35.02642
G1 X83.54 Y135.4 E35.04129
G1 X83.19 Y135.361 E35.053
G0 F6000 X83.103 Y135.754
;TYPE:WALL-OUTER
G1 F1200 X82.724 Y135.623 E35.06634
G1 X82.382 Y135.409 E35.07976
G1 X82.096 Y135.124 E35.09319
G1 X81.88 Y134.781 E35.10667
G1 X81.749 Y134.405 E35.11991
G1 X81.701 Y133.988 E35.13387
G1 X81.7 Y133.923 E35.13604
G1 X81.7 Y101.013 E36.23063
G1 X81.746 Y100.6 E36.24445
G1 X81.881 Y100.216 E36.25799
G1 X82.089 Y99.884 E36.27102
G1 X82.381 Y99.591 E36.28478
G1 X82.716 Y99.381 E36.29793
G1 X83.1 Y99.246 E36.31146
G1 X83.513 Y99.2 E36.32529
G1 X151.487 Y99.2 E38.58611
G1 X151.9 Y99.246 E38.59993
G1 X152.284 Y99.381 E38.61347
G1 X152.616 Y99.589 E38.6265
G1 X152.909 Y99.881 E38.64026
G1 X153.119 Y100.216 E38.65341
G1 X153.254 Y100.6 E38.66695
G1 X153.3 Y101.013 E38.68077
G1 X153.3 Y133.987 E39.77749
G1 X153.254 Y134.397 E39.79121
G1 X153.123 Y134.776 E39.80455
G1 X152.909 Y135.118 E39.81797
G1 X152.624 Y135.404 E39.83139
G1 X152.281 Y135.62 E39.84488
G1 X151.905 Y135.751 E39.85812
G1 X151.49 Y135.799 E39.87201
G1 X83.987 Y135.8 E42.11717
G1 X83.513 Y135.8 E42.13294
G1 X83.103 Y135.754 E42.14666
G0 F6000 X83.199 Y135.325
G0 X83.275 Y134.978
;TYPE:SKIN
G1 F1200 X83.069 Y134.906 E42.15392
G1 X82.875 Y134.785 E42.16152
G1 X82.716 Y134.627 E42.16898
G1 X82.598 Y134.44 E42.17633
G1 X82.525 Y134.226 E42.18385
G1 X82.49 Y133.9 E42.19476
G1 X82.49 Y101.064 E43.28689
G1 X82.522 Y100.773 E43.29663
G1 X82.597 Y100.559 E43.30417
G1 X82.71 Y100.38 E43.31121
G1 X82.879 Y100.21 E43.31918
G1 X83.059 Y100.097 E43.32625
G1 X83.273 Y100.022 E43.33379
G1 X83.564 Y99.99 E43.34353
G1 X151.436 Y99.99 E45.60096
G1 X151.727 Y100.022 E45.6107
G1 X151.941 Y100.097 E45.61824
G1 X152.12 Y100.21 E45.62528
G1 X152.29 Y100.379 E45.63325
G1 X152.403 Y100.559 E45.64032
G1 X152.478 Y100.773 E45.64786
G1 X152.51 Y101.064 E45.6576
G1 X152.51 Y133.935 E46.7509
G1 X152.478 Y134.225 E46.7606
G1 X152.406 Y134.431 E46.76786
G1 X152.285 Y134.625 E46.77546
G1 X152.127 Y134.784 E46.78292
G1 X151.94 Y134.902 E46.79027
G1 X151.726 Y134.975 E46.79779
G1 X151.442 Y135.009 E46.80731
G1 X83.987 Y135.01 E49.05087
G1 X83.565 Y135.01 E49.0649
G1 X83.275 Y134.978 E49.07461
G0 F6000 X83.184 Y135.241
G0 X82.609 Y134.815
G0 X82.24 Y134.2
G0 X82.678 Y134.155
G1 F1200 X83.345 Y134.823 E49.106
G0 F6000 X83.937 Y134.849
G1 F1200 X82.649 Y133.561 E49.16659
G0 F6000 X82.649 Y132.995
G1 F1200 X84.502 Y134.848 E49.25375
G0 F6000 X85.068 Y134.848
G1 F1200 X82.649 Y132.429 E49.36753
G0 F6000 X82.649 Y131.864
G1 F1200 X85.634 Y134.848 E49.50791
G0 F6000 X86.199 Y134.848
G1 F1200 X82.649 Y131.298 E49.67489
G0 F6000 X82.649 Y130.732
G1 F1200 X86.765 Y134.848 E49.8685
G0 F6000 X87.331 Y134.848
G1 F1200 X82.649 Y130.167 E50.0887
G0 F6000 X82.649 Y129.601
G1 F1200 X87.896 Y134.848 E50.3355
G0 F6000 X88.462 Y134.848
G1 F1200 X82.649 Y129.035 E50.60893
G0 F6000 X82.649 Y128.469
G1 F1200 X89.028 Y134.848 E50.90898
G0 F6000 X89.593 Y134.848
G1 F1200 X82.649 Y127.904 E51.2356
G0 F6000 X82.649 Y127.338
G1 F1200 X90.159 Y134.848 E51.58885
G0 F6000 X90.725 Y134.848
G1 F1200 X82.649 Y126.772 E51.96872
G0 F6000 X82.649 Y126.207
G1 F1200 X91.291 Y134.848 E52.37519
G0 F6000 X91.856 Y134.848
G1 F1200 X82.649 Y125.641 E52.80826
G0 F6000 X82.649 Y125.075
G1 F1200 X92.422 Y134.848 E53.26795
G0 F6000 X92.988 Y134.848
