;FLAVOR:Marlin
;TIME:5356
;Filament used: 3.52419m
;Layer height: 0.2
;MINX:73.5
;MINY:88
;MINZ:0.2
;MAXX:161.5
;MAXY:147
;MAXZ:14
;Generated with Cura_SteamEngine 4.6.1
M140 S50
M105
M190 S50
M104 S200
M105
M109 S200
M82 ;absolute extrusion mode
; Ender 3 Custom Start G-code
G92 E0 ; Reset Extruder
G28 ; Home all axes
G1 Z2.0 F3000 ; Move Z Axis up little to prevent scratching of Heat Bed
G1 X0.1 Y20 Z0.3 F5000.0 ; Move to start position
G1 X0.1 Y200.0 Z0.3 F1500.0 E15 ; Draw the first line
G1 X0.4 Y200.0 Z0.3 F5000.0 ; Move to side a little
G1 X0.4 Y20 Z0.3 F1500.0 E30 ; Draw the second line
G92 E0 ; Reset Extruder
G1 Z2.0 F3000 ; Move Z Axis up little to prevent scratching of Heat Bed
G1 X5 Y20 Z0.3 F5000.0 ; Move over to prevent blob squish
G92 E0
G92 E0
G1 F2700 E-5
;LAYER_COUNT:70
;LAYER:0
M107
G0 F6000 X148.637 Y88.811 Z0.2
;TYPE:SKIRT
G1 F2700 E0
G1 F1200 X149.445 Y88.855 E0.02691
G1 X150.18 Y88.935 E0.0515
G1 X151.071 Y89.086 E0.08156
G1 X151.988 Y89.329 E0.11311
G1 X152.21 Y89.399 E0.12086
G1 X152.633 Y89.542 E0.13571
G1 X152.839 Y89.617 E0.143
G1 X153.673 Y89.964 E0.17304
G1 X154.691 Y90.513 E0.21151
G1 X155.07 Y90.746 E0.22631
G1 X155.818 Y91.252 E0.25635
G1 X156.708 Y91.997 E0.29495
G1 X156.854 Y92.134 E0.30161
G1 X157.172 Y92.446 E0.31643
G1 X157.337 Y92.615 E0.32428
G1 X157.939 Y93.289 E0.35434
G1 X158.482 Y94.018 E0.38457
G1 X158.623 Y94.226 E0.39293
G1 X158.895 Y94.649 E0.40966
G1 X158.999 Y94.82 E0.41631
G1 X159.433 Y95.611 E0.44632
G1 X159.89 Y96.691 E0.48533
G1 X160.046 Y97.128 E0.50076
G1 X160.312 Y97.991 E0.5308
G1 X160.5 Y98.874 E0.56082
G1 X160.575 Y99.407 E0.57872
G1 X160.624 Y99.839 E0.59319
G1 X160.688 Y100.834 E0.62635
G1 X160.7 Y101.712 E0.65555
G1 X160.699 Y133.417 E1.71007
G1 X160.689 Y134.133 E1.73388
G1 X160.629 Y135.102 E1.76617
G1 X160.58 Y135.549 E1.78113
G1 X160.442 Y136.442 E1.81118
G1 X160.226 Y137.319 E1.84122
G1 X160.071 Y137.8 E1.85803
G1 X159.924 Y138.221 E1.87286
G1 X159.589 Y139.06 E1.90291
G1 X159.04 Y140.107 E1.94223
G1 X158.651 Y140.734 E1.96677
G1 X158.13 Y141.472 E1.99682
G1 X157.459 Y142.254 E2.03109
G1 X157.306 Y142.415 E2.03848
G1 X156.87 Y142.851 E2.05899
G1 X156.196 Y143.453 E2.08904
G1 X155.19 Y144.177 E2.13027
G1 X154.813 Y144.415 E2.1451
G1 X154.029 Y144.863 E2.17513
G1 X152.863 Y145.372 E2.21744
G1 X152.619 Y145.461 E2.22608
G1 X151.691 Y145.751 E2.25842
G1 X151.391 Y145.829 E2.26873
G1 X150.507 Y146.017 E2.29879
G1 X149.82 Y146.108 E2.32184
G1 X149.504 Y146.139 E2.3324
G1 X148.663 Y146.187 E2.36042
G1 X147.782 Y146.199 E2.38972
G1 X87.207 Y146.2 E4.40445
G1 X87.061 Y146.199 E4.40931
G1 X86.364 Y146.189 E4.4325
G1 X85.401 Y146.13 E4.46459
G1 X84.953 Y146.081 E4.47957
G1 X84.06 Y145.943 E4.50963
G1 X83.184 Y145.726 E4.53964
G1 X82.7 Y145.571 E4.55655
G1 X82.279 Y145.424 E4.57138
G1 X81.44 Y145.089 E4.60143
G1 X80.38 Y144.532 E4.64125
G1 X79.777 Y144.158 E4.66485
G1 X79.038 Y143.638 E4.69491
G1 X78.245 Y142.957 E4.72967
G1 X78.081 Y142.801 E4.7372
G1 X77.673 Y142.394 E4.75637
G1 X77.07 Y141.722 E4.7864
G1 X76.347 Y140.725 E4.82736
G1 X76.104 Y140.343 E4.84242
G1 X75.653 Y139.56 E4.87247
G1 X75.128 Y138.363 E4.91595
G1 X75.039 Y138.119 E4.92459
G1 X74.751 Y137.199 E4.95665
G1 X74.673 Y136.9 E4.96693
G1 X74.484 Y136.017 E4.99696
G1 X74.392 Y135.321 E5.02031
G1 X74.36 Y134.995 E5.03121
G1 X74.322 Y134.466 E5.04885
G1 X74.312 Y134.248 E5.0561
G1 X74.301 Y133.822 E5.07028
G1 X74.3 Y133.574 E5.07853
G1 X74.301 Y101.561 E6.14328
G1 X74.311 Y100.863 E6.1665
G1 X74.352 Y100.081 E6.19255
G1 X74.372 Y99.862 E6.19986
G1 X74.439 Y99.284 E6.21921
G1 X74.594 Y98.394 E6.24926
G1 X74.829 Y97.512 E6.27962
G1 X74.899 Y97.29 E6.28736
G1 X75.042 Y96.867 E6.30221
G1 X75.117 Y96.661 E6.30951
G1 X75.464 Y95.827 E6.33955
G1 X76.019 Y94.799 E6.37841
G1 X76.252 Y94.421 E6.39317
G1 X76.759 Y93.674 E6.4232
G1 X77.448 Y92.846 E6.45903
G1 X77.584 Y92.699 E6.46569
G1 X77.967 Y92.307 E6.48392
G1 X78.137 Y92.142 E6.4918
G1 X78.812 Y91.542 E6.52183
G1 X79.547 Y90.998 E6.55225
G1 X79.764 Y90.852 E6.56095
G1 X80.355 Y90.481 E6.58416
G1 X81.147 Y90.048 E6.61418
G1 X82.302 Y89.567 E6.65579
G1 X82.721 Y89.422 E6.67054
G1 X83.587 Y89.165 E6.70058
G1 X84.89 Y88.928 E6.74463
G1 X85.324 Y88.878 E6.75916
G1 X86.335 Y88.812 E6.79286
G1 X87.212 Y88.8 E6.82203
G1 X147.793 Y88.8 E8.83696
G1 X147.939 Y88.801 E8.84182
G1 X148.637 Y88.811 E8.86504
G0 F6000 X148.643 Y88.411
G1 F1200 X149.482 Y88.456 E8.89298
G1 X149.695 Y88.476 E8.9001
G1 X150.23 Y88.538 E8.91801
G1 X151.138 Y88.691 E8.94864
G1 X152.109 Y88.948 E8.98205
G1 X152.331 Y89.018 E8.98979
G1 X152.975 Y89.242 E9.01247
G1 X153.826 Y89.594 E9.0431
G1 X154.9 Y90.172 E9.08366
G1 X155.279 Y90.405 E9.09846
G1 X156.042 Y90.921 E9.1291
G1 X156.981 Y91.705 E9.16978
G1 X157.127 Y91.842 E9.17644
G1 X157.459 Y92.167 E9.19189
G1 X157.624 Y92.336 E9.19975
G1 X158.237 Y93.022 E9.23035
G1 X158.813 Y93.793 E9.26236
G1 X158.954 Y94.001 E9.27072
G1 X159.237 Y94.441 E9.28812
G1 X159.341 Y94.612 E9.29477
G1 X159.784 Y95.419 E9.32539
G1 X160.267 Y96.556 E9.36648
G1 X160.423 Y96.993 E9.38191
G1 X160.695 Y97.873 E9.41255
G1 X160.889 Y98.773 E9.44317
G1 X160.972 Y99.362 E9.46295
G1 X161.021 Y99.794 E9.47741
G1 X161.088 Y100.828 E9.51188
G1 X161.1 Y101.712 E9.54128
G1 X161.099 Y133.423 E10.59599
G1 X161.089 Y134.139 E10.61981
G1 X161.027 Y135.146 E10.65337
G1 X160.978 Y135.593 E10.66832
G1 X160.838 Y136.503 E10.69895
G1 X160.62 Y137.397 E10.72955
G1 X160.448 Y137.932 E10.74824
G1 X160.301 Y138.353 E10.76307
G1 X159.961 Y139.208 E10.79368
G1 X159.383 Y140.313 E10.83515
G1 X158.988 Y140.95 E10.86008
G1 X158.458 Y141.703 E10.89071
G1 X157.749 Y142.53 E10.92694
G1 X157.596 Y142.691 E10.93433
G1 X157.149 Y143.138 E10.95535
G1 X156.463 Y143.751 E10.98595
G1 X155.404 Y144.515 E11.02938
G1 X155.027 Y144.753 E11.04421
G1 X154.227 Y145.211 E11.07487
G1 X153 Y145.748 E11.11942
G1 X152.756 Y145.837 E11.12806
G1 X151.791 Y146.138 E11.16168
G1 X151.491 Y146.216 E11.17199
G1 X150.591 Y146.409 E11.2026
G1 X149.859 Y146.506 E11.22716
G1 X149.543 Y146.537 E11.23772
G1 X148.669 Y146.587 E11.26684
G1 X147.782 Y146.599 E11.29635
G1 X87.207 Y146.6 E13.31108
G1 X87.055 Y146.599 E13.31613
G1 X86.358 Y146.589 E13.33932
G1 X85.357 Y146.527 E13.37268
G1 X84.909 Y146.478 E13.38767
G1 X84 Y146.338 E13.41825
G1 X83.105 Y146.12 E13.44889
G1 X82.568 Y145.948 E13.46765
G1 X82.147 Y145.801 E13.48248
G1 X81.292 Y145.461 E13.51308
G1 X80.173 Y144.875 E13.5551
G1 X79.561 Y144.495 E13.57906
G1 X78.808 Y143.966 E13.60966
G1 X77.969 Y143.247 E13.64641
G1 X77.805 Y143.091 E13.65394
G1 X77.388 Y142.675 E13.67353
G1 X76.772 Y141.99 E13.70417
G1 X76.009 Y140.939 E13.74737
G1 X75.766 Y140.557 E13.76243
G1 X75.306 Y139.76 E13.79303
G1 X74.752 Y138.5 E13.83881
G1 X74.663 Y138.256 E13.84745
G1 X74.364 Y137.3 E13.88077
G1 X74.286 Y137.001 E13.89105
G1 X74.093 Y136.101 E13.92166
G1 X73.994 Y135.361 E13.94649
G1 X73.962 Y135.035 E13.95739
G1 X73.922 Y134.485 E13.97573
G1 X73.912 Y134.267 E13.98299
G1 X73.901 Y133.824 E13.99773
G1 X73.9 Y133.576 E14.00597
G1 X73.901 Y101.555 E15.071
G1 X73.911 Y100.857 E15.09421
G1 X73.954 Y100.045 E15.12126
G1 X73.974 Y99.826 E15.12857
G1 X74.043 Y99.234 E15.1484
G1 X74.199 Y98.326 E15.17904
G1 X74.448 Y97.391 E15.21122
G1 X74.518 Y97.169 E15.21896
G1 X74.742 Y96.525 E15.24164
G1 X75.094 Y95.674 E15.27227
G1 X75.679 Y94.589 E15.31327
G1 X75.912 Y94.211 E15.32804
G1 X76.428 Y93.449 E15.35865
G1 X77.154 Y92.574 E15.39646
G1 X77.29 Y92.427 E15.40312
G1 X77.688 Y92.02 E15.42206
G1 X77.858 Y91.855 E15.42994
G1 X78.546 Y91.243 E15.46056
G1 X79.324 Y90.666 E15.49278
G1 X79.541 Y90.52 E15.50148
G1 X80.147 Y90.139 E15.52529
G1 X80.955 Y89.697 E15.55592
G1 X82.171 Y89.189 E15.59975
G1 X82.59 Y89.044 E15.6145
G1 X83.473 Y88.781 E15.64514
G1 X84.375 Y88.595 E15.67577
G1 X84.844 Y88.531 E15.69152
G1 X85.278 Y88.481 E15.70605
G1 X86.329 Y88.412 E15.74108
G1 X87.212 Y88.4 E15.77045
G1 X147.793 Y88.4 E17.78538
G1 X147.945 Y88.401 E17.79044
G1 X148.643 Y88.411 E17.81366
G0 F6000 X148.649 Y88.011
G1 F1200 X149.519 Y88.058 E17.84264
G1 X150.279 Y88.141 E17.86806
G1 X151.204 Y88.297 E17.89926
G1 X152.229 Y88.566 E17.93451
G1 X152.451 Y88.636 E17.94225
G1 X153.112 Y88.866 E17.96553
G1 X153.979 Y89.224 E17.99673
G1 X155.11 Y89.831 E18.03942
G1 X155.489 Y90.064 E18.05422
G1 X156.266 Y90.589 E18.08541
G1 X157.255 Y91.414 E18.12824
G1 X157.401 Y91.551 E18.1349
G1 X157.745 Y91.888 E18.15092
G1 X157.91 Y92.057 E18.15878
G1 X158.536 Y92.755 E18.18996
G1 X159.144 Y93.569 E18.22375
G1 X159.285 Y93.777 E18.23211
G1 X159.682 Y94.404 E18.25679
G1 X160.135 Y95.225 E18.28798
G1 X160.644 Y96.422 E18.33124
G1 X160.8 Y96.859 E18.34668
G1 X161.077 Y97.755 E18.37787
G1 X161.277 Y98.671 E18.40905
G1 X161.37 Y99.317 E18.43076
G1 X161.419 Y99.749 E18.44522
G1 X161.488 Y100.822 E18.48098
G1 X161.5 Y101.712 E18.51059
G1 X161.499 Y133.429 E19.5655
G1 X161.489 Y134.145 E19.58931
G1 X161.424 Y135.19 E19.62414
G1 X161.375 Y135.637 E19.6391
G1 X161.234 Y136.564 E19.67028
G1 X161.013 Y137.475 E19.70146
G1 X160.826 Y138.064 E19.72201
G1 X160.679 Y138.485 E19.73685
G1 X160.332 Y139.357 E19.76806
G1 X159.726 Y140.518 E19.81162
G1 X159.324 Y141.166 E19.83698
G1 X158.785 Y141.933 E19.86816
G1 X158.039 Y142.806 E19.90636
G1 X157.886 Y142.967 E19.91374
G1 X157.428 Y143.424 E19.93526
G1 X156.73 Y144.05 E19.96645
G1 X155.617 Y144.854 E20.01211
G1 X155.24 Y145.092 E20.02694
G1 X154.426 Y145.558 E20.05814
G1 X153.576 Y145.953 E20.08931
G1 X153.137 Y146.124 E20.10498
G1 X152.893 Y146.213 E20.11362
G1 X151.892 Y146.525 E20.14849
G1 X151.592 Y146.603 E20.1588
G1 X150.675 Y146.8 E20.19
G1 X149.898 Y146.904 E20.21607
G1 X149.582 Y146.935 E20.22663
G1 X148.675 Y146.987 E20.25685
G1 X147.782 Y146.999 E20.28655
G1 X87.207 Y147 E22.30129
G1 X87.049 Y146.999 E22.30654
G1 X86.352 Y146.989 E22.32973
G1 X85.314 Y146.925 E22.36432
G1 X84.866 Y146.876 E22.37931
G1 X83.939 Y146.734 E22.4105
G1 X83.027 Y146.514 E22.4417
G1 X82.436 Y146.326 E22.46233
G1 X82.015 Y146.179 E22.47716
G1 X81.143 Y145.832 E22.50838
G1 X79.967 Y145.218 E22.5525
G1 X79.345 Y144.832 E22.57685
G1 X78.578 Y144.293 E22.60803
G1 X77.694 Y143.537 E22.64671
G1 X77.53 Y143.381 E22.65424
G1 X77.102 Y142.955 E22.67433
G1 X76.474 Y142.258 E22.70553
G1 X75.672 Y141.154 E22.75092
G1 X75.429 Y140.772 E22.76598
G1 X74.96 Y139.96 E22.79716
G1 X74.561 Y139.111 E22.82836
G1 X74.376 Y138.637 E22.84529
G1 X74.287 Y138.393 E22.85393
G1 X73.977 Y137.401 E22.88849
G1 X73.899 Y137.102 E22.89877
G1 X73.701 Y136.185 E22.92997
G1 X73.596 Y135.4 E22.95632
G1 X73.564 Y135.074 E22.96721
G1 X73.523 Y134.503 E22.98625
G1 X73.513 Y134.285 E22.99351
G1 X73.501 Y133.825 E23.00881
G1 X73.5 Y133.577 E23.01706
G1 X73.501 Y101.549 E24.08232
G1 X73.511 Y100.851 E24.10554
G1 X73.556 Y100.009 E24.13358
G1 X73.576 Y99.79 E24.1409
G1 X73.646 Y99.183 E24.16122
G1 X73.805 Y98.258 E24.19244
G1 X74.066 Y97.271 E24.22639
G1 X74.136 Y97.049 E24.23413
G1 X74.366 Y96.388 E24.25741
G1 X74.724 Y95.521 E24.28861
G1 X75.338 Y94.379 E24.33173
G1 X75.571 Y94.001 E24.3465
G1 X76.097 Y93.224 E24.37771
G1 X76.861 Y92.303 E24.41751
G1 X76.997 Y92.156 E24.42417
G1 X77.41 Y91.733 E24.44384
G1 X77.58 Y91.568 E24.45171
G1 X78.28 Y90.944 E24.4829
G1 X79.101 Y90.334 E24.51692
G1 X79.318 Y90.188 E24.52562
G1 X79.94 Y89.797 E24.55006
G1 X80.762 Y89.346 E24.58124
G1 X82.041 Y88.811 E24.62735
G1 X82.46 Y88.666 E24.6421
G1 X83.358 Y88.397 E24.67328
G1 X84.276 Y88.206 E24.70447
G1 X84.798 Y88.133 E24.722
G1 X85.232 Y88.083 E24.73653
G1 X86.323 Y88.012 E24.77289
G1 X87.212 Y88 E24.80246
G1 X147.793 Y88 E26.81739
G1 X147.951 Y88.001 E26.82265
G1 X148.649 Y88.011 E26.84587
G1 F2700 E21.84587
;MESH:ms_bottom.stl
G0 F6000 X148.471 Y98.336
G0 X148.472 Y99.42
G0 X86.225 Y99.806
G0 X85.738 Y100.041
G0 X85.397 Y100.467
G0 X85.271 Y101.051
G0 X85.309 Y134.276
G0 X85.499 Y134.672
G0 X86.19 Y135.361
;TYPE:WALL-INNER
G1 F2700 E26.84587
G1 F1200 X85.897 Y135.259 E26.85619
G1 X85.631 Y135.093 E26.86661
G1 X85.41 Y134.873 E26.87699
G1 X85.244 Y134.61 E26.88733
G1 X85.141 Y134.312 E26.89782
G1 X85.1 Y133.923 E26.91083
G1 X85.1 Y101.039 E28.00455
G1 X85.139 Y100.687 E28.01633
G1 X85.243 Y100.391 E28.02677
G1 X85.405 Y100.133 E28.0369
G1 X85.631 Y99.906 E28.04755
G1 X85.891 Y99.743 E28.05776
G1 X86.187 Y99.639 E28.0682
G1 X86.539 Y99.6 E28.07997
G1 X148.461 Y99.6 E30.13951
G1 X148.813 Y99.639 E30.15129
G1 X149.109 Y99.743 E30.16172
G1 X149.367 Y99.905 E30.17186
G1 X149.594 Y100.131 E30.18251
G1 X149.757 Y100.391 E30.19272
G1 X149.861 Y100.687 E30.20315
G1 X149.9 Y101.039 E30.21493
G1 X149.9 Y133.96 E31.30989
G1 X149.861 Y134.31 E31.3216
G1 X149.759 Y134.603 E31.33192
G1 X149.593 Y134.869 E31.34235
G1 X149.373 Y135.09 E31.35272
G1 X149.11 Y135.256 E31.36306
G1 X148.812 Y135.359 E31.37355
G1 X148.47 Y135.399 E31.385
G1 X86.944 Y135.4 E33.43137
G1 X86.54 Y135.4 E33.4448
G1 X86.19 Y135.361 E33.45652
G0 F6000 X86.103 Y135.754
;TYPE:WALL-OUTER
G1 F1200 X85.724 Y135.623 E33.46985
G1 X85.382 Y135.409 E33.48327
G1 X85.096 Y135.124 E33.4967
G1 X84.88 Y134.781 E33.51018
G1 X84.749 Y134.405 E33.52343
G1 X84.701 Y133.988 E33.53739
G1 X84.7 Y133.923 E33.53955
G1 X84.7 Y101.013 E34.63414
G1 X84.746 Y100.6 E34.64796
G1 X84.881 Y100.216 E34.6615
G1 X85.089 Y99.884 E34.67453
G1 X85.381 Y99.591 E34.68829
G1 X85.716 Y99.381 E34.70144
G1 X86.1 Y99.246 E34.71498
G1 X86.513 Y99.2 E34.7288
G1 X148.487 Y99.2 E36.79006
G1 X148.9 Y99.246 E36.80388
G1 X149.284 Y99.381 E36.81742
G1 X149.616 Y99.589 E36.83045
G1 X149.909 Y99.881 E36.84421
G1 X150.119 Y100.216 E36.85736
G1 X150.254 Y100.6 E36.8709
G1 X150.3 Y101.013 E36.88472
G1 X150.3 Y133.987 E37.98144
G1 X150.254 Y134.397 E37.99516
G1 X150.123 Y134.776 E38.0085
G1 X149.909 Y135.118 E38.02192
G1 X149.624 Y135.404 E38.03535
G1 X149.281 Y135.62 E38.04883
G1 X148.905 Y135.751 E38.06207
G1 X148.49 Y135.799 E38.07597
G1 X86.944 Y135.8 E40.123
G1 X86.513 Y135.8 E40.13733
G1 X86.103 Y135.754 E40.15105
G0 F6000 X86.199 Y135.325
G0 X86.275 Y134.978
;TYPE:SKIN
G1 F1200 X86.069 Y134.906 E40.15831
G1 X85.875 Y134.785 E40.16592
G1 X85.716 Y134.627 E40.17337
G1 X85.598 Y134.44 E40.18073
G1 X85.525 Y134.226 E40.18825
G1 X85.49 Y133.9 E40.19915
G1 X85.49 Y101.064 E41.29128
G1 X85.522 Y100.773 E41.30102
G1 X85.597 Y100.559 E41.30856
G1 X85.71 Y100.38 E41.3156
G1 X85.879 Y100.21 E41.32357
G1 X86.059 Y100.097 E41.33064
G1 X86.273 Y100.022 E41.33818
G1 X86.564 Y99.99 E41.34792
G1 X148.436 Y99.99 E43.40579
G1 X148.727 Y100.022 E43.41553
G1 X148.941 Y100.097 E43.42307
G1 X149.12 Y100.21 E43.43011
G1 X149.29 Y100.379 E43.43808
G1 X149.403 Y100.559 E43.44515
G1 X149.478 Y100.773 E43.4527
G1 X149.51 Y101.064 E43.46243
G1 X149.51 Y133.935 E44.55573
G1 X149.478 Y134.225 E44.56543
G1 X149.406 Y134.431 E44.57269
G1 X149.285 Y134.625 E44.58029
G1 X149.127 Y134.784 E44.58775
G1 X148.94 Y134.902 E44.5951
G1 X148.726 Y134.975 E44.60262
G1 X148.442 Y135.009 E44.61214
G1 X86.944 Y135.01 E46.65757
G1 X86.565 Y135.01 E46.67017
G1 X86.275 Y134.978 E46.67988
G0 F6000 X85.782 Y134.431
G1 F1200 X86.064 Y134.713 E46.69314
G0 F6000 X86.765 Y134.848
G1 F1200 X85.649 Y133.732 E46.74564
G0 F6000 X85.649 Y133.167
G1 F1200 X87.331 Y134.849 E46.82475
G0 F6000 X87.897 Y134.849
G1 F1200 X85.649 Y132.601 E46.93049
G0 F6000 X85.649 Y132.035
G1 F1200 X88.463 Y134.849 E47.06285
G0 F6000 X89.028 Y134.849
G1 F1200 X85.649 Y131.47 E47.22179
G0 F6000 X85.649 Y130.904
G1 F1200 X89.594 Y134.849 E47.40735
G0 F6000 X90.16 Y134.849
G1 F1200 X85.649 Y130.338 E47.61953
G0 F6000 X85.649 Y129.773
G1 F1200 X90.726 Y134.849 E47.85832
G0 F6000 X91.291 Y134.849
G1 F1200 X85.649 Y129.207 E48.1237
G0 F6000 X85.649 Y128.641
G1 F1200 X91.857 Y134.849 E48.41571
G0 F6000 X92.423 Y134.849
G1 F1200 X85.649 Y128.076 E48.73431
G0 F6000 X85.649 Y127.51
G1 F1200 X92.988 Y134.849 E49.07951
G0 F6000 X93.554 Y134.849
G1 F1200 X85.649 Y126.944 E49.45134
G0 F6000 X85.649 Y126.379
G1 F1200 X94.12 Y134.849 E49.84977
G0 F6000 X94.685 Y134.849
G1 F1200 X85.649 Y125.813 E50.27479
G0 F6000 X85.649 Y125.247
G1 F1200 X95.251 Y134.849 E50.72644
G0 F6000 X95.817 Y134.849
G1 F1200 X85.649 Y124.682 E51.20469
G0 F6000 X85.649 Y124.116
