;FLAVOR:Marlin
;TIME:3072
;Filament used: 2.01865m
;Layer height: 0.2
;MINX:74.201
;MINY:85.2
;MINZ:0.2
;MAXX:160.8
;MAXY:149.8
;MAXZ:2
;Generated with Cura_SteamEngine 4.6.1
M140 S50
M105
M190 S50
M104 S200
M105
M109 S200
M82 ;absolute extrusion mode
; Ender 3 Custom Start G-code
G92 E0 ; Reset Extruder
G28 ; Home all axes
G1 Z2.0 F3000 ; Move Z Axis up little to prevent scratching of Heat Bed
G1 X0.1 Y20 Z0.3 F5000.0 ; Move to start position
G1 X0.1 Y200.0 Z0.3 F1500.0 E15 ; Draw the first line
G1 X0.4 Y200.0 Z0.3 F5000.0 ; Move to side a little
G1 X0.4 Y20 Z0.3 F1500.0 E30 ; Draw the second line
G92 E0 ; Reset Extruder
G1 Z2.0 F3000 ; Move Z Axis up little to prevent scratching of Heat Bed
G1 X5 Y20 Z0.3 F5000.0 ; Move over to prevent blob squish
G92 E0
G92 E0
G1 F2700 E-5
;LAYER_COUNT:10
;LAYER:0
M107
G0 F6000 X148.937 Y86.011 Z0.2
;TYPE:SKIRT
G1 F2700 E0
G1 F1200 X149.917 Y86.072 E0.03266
G1 X150.151 Y86.098 E0.04049
G1 X151.044 Y86.238 E0.07055
G1 X151.92 Y86.456 E0.10058
G1 X152.368 Y86.599 E0.11622
G1 X152.564 Y86.667 E0.12312
G1 X153.404 Y87.001 E0.15318
G1 X154.58 Y87.625 E0.19746
G1 X154.763 Y87.738 E0.20462
G1 X155.51 Y88.246 E0.23466
G1 X156.208 Y88.818 E0.26468
G1 X156.551 Y89.14 E0.28033
G1 X156.719 Y89.305 E0.28816
G1 X157.335 Y89.966 E0.31821
G1 X157.89 Y90.678 E0.34824
G1 X158.183 Y91.115 E0.36574
G1 X158.303 Y91.304 E0.37318
G1 X158.753 Y92.087 E0.40322
G1 X159.132 Y92.907 E0.43326
G1 X159.369 Y93.541 E0.45578
G1 X159.634 Y94.404 E0.4858
G1 X159.88 Y95.686 E0.52922
G1 X159.91 Y95.924 E0.5372
G1 X159.989 Y97.049 E0.57471
G1 X160 Y97.875 E0.60218
G1 X159.999 Y137.2 E1.91014
G1 X159.989 Y137.931 E1.93445
G1 X159.933 Y138.871 E1.96577
G1 X159.91 Y139.087 E1.973
G1 X159.774 Y139.98 E2.00304
G1 X159.448 Y141.218 E2.04562
G1 X159.382 Y141.417 E2.0526
G1 X159.06 Y142.261 E2.08264
G1 X158.444 Y143.46 E2.12747
G1 X158.325 Y143.658 E2.13516
G1 X157.825 Y144.411 E2.16522
G1 X157.262 Y145.117 E2.19526
G1 X156.884 Y145.526 E2.21378
G1 X156.725 Y145.689 E2.22135
G1 X156.066 Y146.307 E2.2514
G1 X155.355 Y146.865 E2.28146
G1 X154.779 Y147.25 E2.3045
G1 X154 Y147.706 E2.33453
G1 X153.183 Y148.092 E2.36458
G1 X152.673 Y148.29 E2.38278
G1 X152.463 Y148.365 E2.39019
G1 X151.6 Y148.631 E2.42023
G1 X150.716 Y148.819 E2.45029
G1 X149.82 Y148.929 E2.48031
G1 X149.359 Y148.954 E2.49567
G1 X148.142 Y148.993 E2.53617
G1 X147.815 Y148.998 E2.54705
G1 X89.331 Y149 E4.49223
G1 X86.761 Y148.999 E4.57771
G1 X86.063 Y148.989 E4.60093
G1 X85.129 Y148.933 E4.63205
G1 X84.913 Y148.91 E4.63927
G1 X84.02 Y148.774 E4.66932
G1 X82.811 Y148.458 E4.71088
G1 X82.61 Y148.392 E4.71792
G1 X81.765 Y148.072 E4.74797
G1 X80.952 Y147.68 E4.77799
G1 X80.493 Y147.416 E4.7956
G1 X80.294 Y147.295 E4.80335
G1 X79.544 Y146.792 E4.83338
G1 X78.841 Y146.225 E4.86342
G1 X78.472 Y145.883 E4.88015
G1 X78.312 Y145.727 E4.88759
G1 X77.694 Y145.069 E4.91761
G1 X77.137 Y144.358 E4.94765
G1 X76.846 Y143.93 E4.96487
G1 X76.737 Y143.76 E4.97158
G1 X76.284 Y142.978 E5.00164
G1 X75.777 Y141.845 E5.04293
G1 X75.692 Y141.619 E5.05096
G1 X75.412 Y140.76 E5.08101
G1 X75.209 Y139.88 E5.11104
G1 X75.084 Y138.986 E5.14107
G1 X75.044 Y138.339 E5.16263
G1 X75.002 Y136.815 E5.21334
G1 X75.001 Y97.766 E6.51211
G1 X75.011 Y97.057 E6.53569
G1 X75.076 Y96.04 E6.56959
G1 X75.102 Y95.813 E6.57719
G1 X75.245 Y94.921 E6.60724
G1 X75.465 Y94.046 E6.63724
G1 X75.633 Y93.534 E6.65517
G1 X75.705 Y93.333 E6.66227
G1 X76.047 Y92.497 E6.69231
G1 X76.618 Y91.433 E6.73247
G1 X76.728 Y91.254 E6.73946
G1 X77.234 Y90.506 E6.7695
G1 X77.805 Y89.806 E6.79954
G1 X78.161 Y89.427 E6.81684
G1 X78.32 Y89.266 E6.82436
G1 X78.982 Y88.652 E6.85439
G1 X80.052 Y87.859 E6.89869
G1 X80.246 Y87.734 E6.90637
G1 X81.026 Y87.279 E6.9364
G1 X81.844 Y86.894 E6.96647
G1 X82.374 Y86.69 E6.98536
G1 X82.575 Y86.619 E6.99245
G1 X83.439 Y86.357 E7.02248
G1 X84.323 Y86.171 E7.05252
G1 X84.778 Y86.107 E7.06781
G1 X85.007 Y86.08 E7.07547
G1 X86.05 Y86.011 E7.11024
G1 X86.875 Y86 E7.13768
G1 X148.093 Y86 E9.1738
G1 X148.239 Y86.001 E9.17866
G1 X148.937 Y86.011 E9.20188
G0 F6000 X148.943 Y85.611
G1 F1200 X149.962 Y85.675 E9.23583
G1 X150.196 Y85.701 E9.24367
G1 X151.105 Y85.842 E9.27426
G1 X151.999 Y86.062 E9.30488
G1 X152.499 Y86.222 E9.32234
G1 X152.695 Y86.29 E9.32924
G1 X153.551 Y86.629 E9.35987
G1 X154.374 Y87.041 E9.39048
G1 X154.973 Y87.398 E9.41367
G1 X155.735 Y87.915 E9.4443
G1 X156.449 Y88.497 E9.47493
G1 X156.832 Y88.854 E9.49235
G1 X157 Y89.019 E9.50018
G1 X157.628 Y89.692 E9.5308
G1 X158.195 Y90.417 E9.56141
G1 X158.521 Y90.9 E9.58079
G1 X158.641 Y91.089 E9.58824
G1 X159.1 Y91.887 E9.61885
G1 X159.488 Y92.722 E9.64948
G1 X159.678 Y93.216 E9.66708
G1 X159.746 Y93.407 E9.67383
G1 X160.017 Y94.287 E9.70445
G1 X160.277 Y95.636 E9.75015
G1 X160.307 Y95.874 E9.75812
G1 X160.389 Y97.043 E9.7971
G1 X160.4 Y97.875 E9.82478
G1 X160.399 Y137.205 E11.1329
G1 X160.389 Y137.936 E11.15721
G1 X160.33 Y138.913 E11.18977
G1 X160.307 Y139.129 E11.19699
G1 X160.17 Y140.04 E11.22763
G1 X159.828 Y141.344 E11.27247
G1 X159.762 Y141.543 E11.27944
G1 X159.435 Y142.403 E11.31004
G1 X159.034 Y143.232 E11.34067
G1 X158.786 Y143.666 E11.3573
G1 X158.667 Y143.864 E11.36498
G1 X158.159 Y144.632 E11.39561
G1 X157.587 Y145.353 E11.42622
G1 X157.17 Y145.806 E11.4467
G1 X157.011 Y145.969 E11.45427
G1 X156.34 Y146.599 E11.48488
G1 X155.617 Y147.169 E11.51551
G1 X155.177 Y147.469 E11.53322
G1 X154.996 Y147.586 E11.54039
G1 X154.202 Y148.052 E11.57101
G1 X153.371 Y148.447 E11.60161
G1 X152.807 Y148.666 E11.62173
G1 X152.597 Y148.741 E11.62915
G1 X151.718 Y149.013 E11.65975
G1 X150.818 Y149.208 E11.69038
G1 X149.904 Y149.323 E11.72102
G1 X149.372 Y149.354 E11.73875
G1 X148.155 Y149.393 E11.77924
G1 X147.815 Y149.398 E11.79055
G1 X89.331 Y149.4 E13.73574
G1 X86.755 Y149.399 E13.82142
G1 X86.057 Y149.389 E13.84464
G1 X85.087 Y149.33 E13.87696
G1 X84.871 Y149.307 E13.88418
G1 X83.96 Y149.17 E13.91482
G1 X82.686 Y148.838 E13.95861
G1 X82.485 Y148.772 E13.96565
G1 X81.624 Y148.447 E13.99626
G1 X80.794 Y148.049 E14.02687
G1 X80.285 Y147.758 E14.04637
G1 X80.086 Y147.637 E14.05412
G1 X79.321 Y147.125 E14.08474
G1 X78.603 Y146.549 E14.11535
G1 X78.193 Y146.17 E14.13392
G1 X78.033 Y146.014 E14.14136
G1 X77.402 Y145.343 E14.17199
G1 X76.832 Y144.62 E14.20261
G1 X76.51 Y144.145 E14.2217
G1 X76.401 Y143.975 E14.22842
G1 X75.938 Y143.18 E14.25901
G1 X75.403 Y141.986 E14.30253
G1 X75.318 Y141.76 E14.31056
G1 X75.031 Y140.885 E14.34119
G1 X74.822 Y139.988 E14.37182
G1 X74.691 Y139.077 E14.40244
G1 X74.644 Y138.351 E14.42663
G1 X74.602 Y136.815 E14.47774
G1 X74.601 Y97.761 E15.77668
G1 X74.611 Y97.052 E15.80026
G1 X74.679 Y95.995 E15.83549
G1 X74.705 Y95.768 E15.84309
G1 X74.849 Y94.859 E15.8737
G1 X75.072 Y93.965 E15.90435
G1 X75.257 Y93.399 E15.92415
G1 X75.329 Y93.198 E15.93126
G1 X75.677 Y92.346 E15.96187
G1 X76.277 Y91.223 E16.00421
G1 X76.387 Y91.044 E16.0112
G1 X76.903 Y90.281 E16.04184
G1 X77.482 Y89.566 E16.07244
G1 X77.876 Y89.146 E16.09159
G1 X78.035 Y88.985 E16.09912
G1 X78.71 Y88.358 E16.12976
G1 X79.436 Y87.793 E16.16036
G1 X79.836 Y87.522 E16.17643
G1 X80.03 Y87.397 E16.1841
G1 X80.825 Y86.933 E16.21472
G1 X81.657 Y86.539 E16.24534
G1 X82.241 Y86.313 E16.26617
G1 X82.442 Y86.242 E16.27326
G1 X83.322 Y85.974 E16.30385
G1 X84.223 Y85.782 E16.33449
G1 X84.731 Y85.71 E16.35156
G1 X84.96 Y85.683 E16.35923
G1 X86.044 Y85.611 E16.39536
G1 X86.875 Y85.6 E16.423
G1 X148.093 Y85.6 E18.45912
G1 X148.245 Y85.601 E18.46418
G1 X148.943 Y85.611 E18.48739
G0 F6000 X148.949 Y85.211
G1 F1200 X150.006 Y85.277 E18.52262
G1 X150.24 Y85.303 E18.53045
G1 X151.167 Y85.446 E18.56165
G1 X152.078 Y85.668 E18.59283
G1 X152.63 Y85.844 E18.6121
G1 X152.826 Y85.912 E18.619
G1 X153.699 Y86.257 E18.65022
G1 X154.538 Y86.675 E18.6814
G1 X155 Y86.945 E18.6992
G1 X155.183 Y87.058 E18.70635
G1 X155.96 Y87.584 E18.73756
G1 X156.688 Y88.174 E18.76873
G1 X157.112 Y88.569 E18.788
G1 X157.28 Y88.734 E18.79583
G1 X157.92 Y89.419 E18.82701
G1 X158.5 Y90.156 E18.85821
G1 X158.858 Y90.686 E18.87948
G1 X158.978 Y90.875 E18.88692
G1 X159.447 Y91.687 E18.91811
G1 X159.844 Y92.537 E18.94932
G1 X160.055 Y93.082 E18.96875
G1 X160.123 Y93.273 E18.9755
G1 X160.399 Y94.169 E19.00668
G1 X160.599 Y95.085 E19.03786
G1 X160.674 Y95.586 E19.05471
G1 X160.704 Y95.824 E19.06269
G1 X160.789 Y97.037 E19.10313
G1 X160.8 Y97.875 E19.13101
G1 X160.799 Y137.21 E20.4393
G1 X160.789 Y137.941 E20.46361
G1 X160.728 Y138.956 E20.49743
G1 X160.705 Y139.172 E20.50466
G1 X160.566 Y140.099 E20.53583
G1 X160.349 Y141.012 E20.56705
G1 X160.142 Y141.669 E20.58996
G1 X159.809 Y142.546 E20.62116
G1 X159.402 Y143.391 E20.65235
G1 X159.129 Y143.872 E20.67075
G1 X159.01 Y144.07 E20.67843
G1 X158.493 Y144.853 E20.70964
G1 X157.912 Y145.589 E20.74083
G1 X157.456 Y146.085 E20.76324
G1 X157.297 Y146.248 E20.77081
G1 X156.614 Y146.891 E20.80201
G1 X155.879 Y147.473 E20.83319
G1 X155.395 Y147.805 E20.85271
G1 X155.214 Y147.922 E20.85988
G1 X154.405 Y148.397 E20.89108
G1 X153.559 Y148.802 E20.92228
G1 X152.942 Y149.043 E20.94431
G1 X152.732 Y149.118 E20.95173
G1 X151.836 Y149.396 E20.98293
G1 X150.92 Y149.596 E21.01411
G1 X149.99 Y149.717 E21.04531
G1 X149.384 Y149.753 E21.0655
G1 X148.167 Y149.792 E21.106
G1 X147.815 Y149.798 E21.11771
G1 X89.331 Y149.8 E23.06289
G1 X86.749 Y149.799 E23.14877
G1 X86.051 Y149.789 E23.17199
G1 X85.044 Y149.728 E23.20554
G1 X84.828 Y149.705 E23.21277
G1 X83.901 Y149.566 E23.24394
G1 X82.561 Y149.218 E23.28999
G1 X82.36 Y149.152 E23.29703
G1 X81.483 Y148.822 E23.32819
G1 X80.636 Y148.418 E23.3594
G1 X80.077 Y148.1 E23.38079
G1 X79.878 Y147.979 E23.38854
G1 X79.098 Y147.458 E23.41974
G1 X78.366 Y146.872 E23.45093
G1 X77.914 Y146.456 E23.47136
G1 X77.754 Y146.3 E23.47879
G1 X77.111 Y145.617 E23.50999
G1 X76.528 Y144.882 E23.54119
G1 X76.173 Y144.361 E23.56216
G1 X76.064 Y144.191 E23.56888
G1 X75.592 Y143.381 E23.60006
G1 X75.028 Y142.126 E23.64582
G1 X74.943 Y141.9 E23.65385
G1 X74.651 Y141.009 E23.68504
G1 X74.435 Y140.096 E23.71624
G1 X74.298 Y139.169 E23.74741
G1 X74.244 Y138.363 E23.77428
G1 X74.207 Y137.149 E23.81467
G1 X74.202 Y136.815 E23.82578
G1 X74.201 Y97.755 E25.12493
G1 X74.211 Y97.046 E25.14851
G1 X74.281 Y95.949 E25.18507
G1 X74.307 Y95.722 E25.19267
G1 X74.454 Y94.796 E25.22385
G1 X74.679 Y93.885 E25.25506
G1 X74.88 Y93.265 E25.27674
G1 X74.952 Y93.064 E25.28384
G1 X75.306 Y92.195 E25.31505
G1 X75.936 Y91.014 E25.35957
G1 X76.046 Y90.835 E25.36656
G1 X76.571 Y90.057 E25.39778
G1 X77.16 Y89.328 E25.42895
G1 X77.591 Y88.865 E25.44999
G1 X77.75 Y88.704 E25.45751
G1 X78.437 Y88.065 E25.48872
G1 X79.176 Y87.487 E25.51992
G1 X79.619 Y87.186 E25.53774
G1 X79.813 Y87.061 E25.54541
G1 X80.622 Y86.587 E25.5766
G1 X81.469 Y86.184 E25.6078
G1 X82.107 Y85.936 E25.63056
G1 X82.308 Y85.865 E25.63765
G1 X83.205 Y85.591 E25.66885
G1 X84.122 Y85.394 E25.70004
G1 X84.684 Y85.313 E25.71893
G1 X84.913 Y85.286 E25.7266
G1 X86.038 Y85.211 E25.7641
G1 X86.875 Y85.2 E25.79194
G1 X148.093 Y85.2 E27.82806
G1 X148.251 Y85.201 E27.83331
G1 X148.949 Y85.211 E27.85653
G1 F2700 E22.85653
;MESH:ms_cover.stl
G0 F6000 X148.771 Y95.536
G0 X148.772 Y96.62
G0 X149.002 Y99.473
G0 X149.001 Y135.527
G0 X147.044 Y134.794
G0 X146.24 Y135.805
G0 X146.109 Y136.127
G0 X146.062 Y136.469
G0 X146.093 Y136.814
G0 X146.212 Y137.142
G0 X146.901 Y137.986
;TYPE:WALL-INNER
G1 F2700 E27.85653
G1 F1200 X147.272 Y138.085 E27.8693
G1 X147.657 Y138.095 E27.88211
G1 X148.039 Y138.011 E27.89512
G1 X148.382 Y137.837 E27.90791
G1 X148.42 Y137.804 E27.90959
G1 X148.677 Y137.587 E27.92078
G1 X148.811 Y137.4 E27.92843
G1 X148.902 Y137.273 E27.93362
G1 X149.047 Y136.916 E27.94644
G1 X149.101 Y136.535 E27.95924
G1 X149.065 Y136.15 E27.9721
G1 X148.933 Y135.785 E27.98501
G1 X148.812 Y135.6 E27.99236
G1 X148.722 Y135.463 E27.99781
G1 X148.438 Y135.201 E28.01066
G1 X148.099 Y135.014 E28.02354
G1 X147.728 Y134.915 E28.03631
G1 X147.343 Y134.905 E28.04912
G1 X146.961 Y134.989 E28.06213
G1 X146.618 Y135.163 E28.07492
G1 X146.323 Y135.413 E28.08778
G1 X146.098 Y135.727 E28.10063
G1 X145.953 Y136.084 E28.11345
G1 X145.899 Y136.465 E28.12625
G1 X145.935 Y136.85 E28.13911
G1 X146.067 Y137.215 E28.15202
G1 X146.278 Y137.537 E28.16482
G1 X146.562 Y137.799 E28.17767
G1 X146.584 Y137.811 E28.17851
G1 X146.901 Y137.986 E28.19055
G0 F6000 X147.051 Y137.612
;TYPE:WALL-OUTER
G1 F1200 X147.33 Y137.686 E28.20015
G1 X147.619 Y137.694 E28.20977
G1 X147.903 Y137.631 E28.21944
G1 X148.16 Y137.501 E28.22902
G1 X148.381 Y137.314 E28.23865
G1 X148.549 Y137.079 E28.24826
G1 X148.658 Y136.811 E28.25788
G1 X148.698 Y136.526 E28.26745
G1 X148.671 Y136.238 E28.27707
G1 X148.573 Y135.965 E28.28672
G1 X148.415 Y135.724 E28.29631
G1 X148.202 Y135.528 E28.30593
G1 X147.949 Y135.388 E28.31555
G1 X147.67 Y135.314 E28.32515
G1 X147.381 Y135.306 E28.33477
G1 X147.097 Y135.369 E28.34444
G1 X146.84 Y135.499 E28.35402
G1 X146.619 Y135.686 E28.36365
G1 X146.451 Y135.921 E28.37326
G1 X146.342 Y136.189 E28.38288
G1 X146.302 Y136.474 E28.39245
G1 X146.329 Y136.762 E28.40207
G1 X146.427 Y137.035 E28.41172
G1 X146.585 Y137.276 E28.42131
G1 X146.798 Y137.472 E28.43093
G1 X147.051 Y137.612 E28.44055
G0 F6000 X146.887 Y138.02
G1 F2700 E23.44055
G0 F6000 X146.212 Y137.142
G0 X146.093 Y136.814
G0 X146.062 Y136.469
G0 X146.109 Y136.127
G0 X146.24 Y135.805
G0 X146.903 Y134.827
G0 X148.853 Y135.351
G0 X149.001 Y135.527
G0 X149.002 Y99.473
G0 X148.008 Y99.915
G0 X146.901 Y99.986
;TYPE:WALL-INNER
G1 F2700 E28.44055
G1 F1200 X147.272 Y100.085 E28.45332
G1 X147.657 Y100.095 E28.46613
G1 X148.039 Y100.011 E28.47914
G1 X148.382 Y99.837 E28.49193
G1 X148.677 Y99.587 E28.50479
G1 X148.811 Y99.4 E28.51245
G1 X148.902 Y99.273 E28.51764
G1 X149.047 Y98.916 E28.53046
G1 X149.101 Y98.535 E28.54326
G1 X149.065 Y98.15 E28.55612
G1 X148.933 Y97.785 E28.56903
G1 X148.812 Y97.6 E28.57638
G1 X148.722 Y97.463 E28.58183
G1 X148.438 Y97.201 E28.59468
G1 X148.413 Y97.187 E28.59564
G1 X148.099 Y97.014 E28.60756
G1 X147.728 Y96.915 E28.62033
G1 X147.343 Y96.905 E28.63314
G1 X146.961 Y96.989 E28.64615
G1 X146.618 Y97.163 E28.65894
G1 X146.581 Y97.194 E28.66055
G1 X146.323 Y97.413 E28.6718
G1 X146.098 Y97.727 E28.68465
G1 X145.953 Y98.084 E28.69747
G1 X145.899 Y98.465 E28.71027
G1 X145.935 Y98.85 E28.72313
G1 X146.067 Y99.215 E28.73604
G1 X146.278 Y99.537 E28.74884
G1 X146.562 Y99.799 E28.76169
G1 X146.901 Y99.986 E28.77457
G0 F6000 X147.051 Y99.612
;TYPE:WALL-OUTER
G1 F1200 X147.33 Y99.686 E28.78417
G1 X147.619 Y99.694 E28.79379
G1 X147.903 Y99.631 E28.80346
G1 X148.16 Y99.501 E28.81304
G1 X148.381 Y99.314 E28.82267
G1 X148.549 Y99.079 E28.83228
G1 X148.658 Y98.811 E28.8419
G1 X148.698 Y98.526 E28.85147
G1 X148.671 Y98.238 E28.86109
G1 X148.573 Y97.965 E28.87074
G1 X148.415 Y97.724 E28.88032
G1 X148.202 Y97.528 E28.88995
G1 X147.949 Y97.388 E28.89957
G1 X147.67 Y97.314 E28.90917
G1 X147.381 Y97.306 E28.91879
G1 X147.097 Y97.369 E28.92846
G1 X146.84 Y97.499 E28.93804
G1 X146.619 Y97.686 E28.94767
G1 X146.451 Y97.921 E28.95728
G1 X146.342 Y98.189 E28.9669
G1 X146.302 Y98.474 E28.97647
G1 X146.329 Y98.762 E28.98609
G1 X146.427 Y99.035 E28.99574
G1 X146.585 Y99.276 E29.00532
G1 X146.798 Y99.472 E29.01495
G1 X147.051 Y99.612 E29.02457
G0 F6000 X146.887 Y100.02
G1 F2700 E24.02457
G0 F6000 X145.767 Y98.888
G0 X146.511 Y96.997
G0 X88.494 Y96.997
G0 X89.238 Y98.855
G0 X88.984 Y99.2
G0 X87.797 Y100.077
;TYPE:WALL-INNER
G1 F2700 E29.02457
G1 F1200 X88.111 Y99.984 E29.03546
G1 X88.394 Y99.829 E29.04619
G1 X88.617 Y99.647 E29.05577
G1 X88.819 Y99.409 E29.06615
G1 X88.975 Y99.128 E29.07684
G1 X89.07 Y98.821 E29.08753
G1 X89.103 Y98.505 E29.0981
G1 X89.076 Y98.212 E29.10788
G1 X88.989 Y97.906 E29.11846
G1 X88.84 Y97.622 E29.12913
G1 X88.641 Y97.375 E29.13968
G1 X88.425 Y97.195 E29.14903
G1 X88.396 Y97.171 E29.15028
G1 X88.135 Y97.03 E29.16015
G1 X87.835 Y96.934 E29.17063
G1 X87.522 Y96.899 E29.1811
G1 X87.203 Y96.923 E29.19174
G1 X86.889 Y97.016 E29.20263
G1 X86.606 Y97.171 E29.21337
G1 X86.576 Y97.195 E29.21464
G1 X86.383 Y97.353 E29.22294
G1 X86.197 Y97.572 E29.2325
G1 X86.181 Y97.591 E29.23332
G1 X86.025 Y97.872 E29.24401
