;FLAVOR:Marlin
;TIME:7524
;Filament used: 5.05589m
;Layer height: 0.2
;MINX:73
;MINY:84
;MINZ:0.2
;MAXX:162
;MAXY:151
;MAXZ:22
;Generated with Cura_SteamEngine 4.6.1
M140 S50
M105
M190 S50
M104 S200
M105
M109 S200
M82 ;absolute extrusion mode
; Ender 3 Custom Start G-code
G92 E0 ; Reset Extruder
G28 ; Home all axes
G1 Z2.0 F3000 ; Move Z Axis up little to prevent scratching of Heat Bed
G1 X0.1 Y20 Z0.3 F5000.0 ; Move to start position
G1 X0.1 Y200.0 Z0.3 F1500.0 E15 ; Draw the first line
G1 X0.4 Y200.0 Z0.3 F5000.0 ; Move to side a little
G1 X0.4 Y20 Z0.3 F1500.0 E30 ; Draw the second line
G92 E0 ; Reset Extruder
G1 Z2.0 F3000 ; Move Z Axis up little to prevent scratching of Heat Bed
G1 X5 Y20 Z0.3 F5000.0 ; Move over to prevent blob squish
G92 E0
G92 E0
G1 F2700 E-5
;LAYER_COUNT:110
;LAYER:0
M107
G0 F6000 X149.137 Y84.811 Z0.2
;TYPE:SKIRT
G1 F2700 E0
G1 F1200 X149.945 Y84.855 E0.02691
G1 X150.68 Y84.935 E0.0515
G1 X151.571 Y85.086 E0.08156
G1 X152.488 Y85.329 E0.11311
G1 X152.71 Y85.399 E0.12086
G1 X153.133 Y85.542 E0.13571
G1 X153.339 Y85.617 E0.143
G1 X154.173 Y85.964 E0.17304
G1 X155.177 Y86.504 E0.21096
G1 X155.541 Y86.727 E0.22516
G1 X156.29 Y87.233 E0.25522
G1 X157.103 Y87.904 E0.29028
G1 X157.27 Y88.057 E0.29782
G1 X157.655 Y88.428 E0.3156
G1 X157.826 Y88.602 E0.32371
G1 X158.43 Y89.274 E0.35377
G1 X159.169 Y90.296 E0.39571
G1 X159.402 Y90.664 E0.4102
G1 X159.851 Y91.447 E0.44022
G1 X160.228 Y92.268 E0.47027
G1 X160.392 Y92.695 E0.48548
G1 X160.546 Y93.127 E0.50074
G1 X160.811 Y93.99 E0.53076
G1 X160.999 Y94.874 E0.56082
G1 X161.069 Y95.37 E0.57748
G1 X161.12 Y95.807 E0.59212
G1 X161.188 Y96.834 E0.62635
G1 X161.2 Y97.712 E0.65555
G1 X161.199 Y137.439 E1.97688
G1 X161.189 Y138.137 E2.0001
G1 X161.132 Y139.082 E2.03158
G1 X161.085 Y139.519 E2.0462
G1 X160.948 Y140.412 E2.07625
G1 X160.734 Y141.289 E2.10628
G1 X160.586 Y141.754 E2.12251
G1 X160.437 Y142.186 E2.13771
G1 X160.105 Y143.026 E2.16775
G1 X159.533 Y144.121 E2.20884
G1 X159.415 Y144.317 E2.21645
G1 X159.1 Y144.812 E2.23596
G1 X158.573 Y145.546 E2.26601
G1 X157.793 Y146.428 E2.30518
G1 X157.503 Y146.72 E2.31886
G1 X156.839 Y147.332 E2.3489
G1 X156.109 Y147.893 E2.37952
G1 X155.933 Y148.016 E2.38666
G1 X155.396 Y148.366 E2.40798
G1 X155.176 Y148.5 E2.41655
G1 X154.385 Y148.935 E2.44657
G1 X153.425 Y149.349 E2.48135
G1 X153.226 Y149.423 E2.48841
G1 X152.66 Y149.618 E2.50832
G1 X151.792 Y149.864 E2.53833
G1 X150.619 Y150.07 E2.57794
G1 X150.169 Y150.122 E2.593
G1 X149.184 Y150.187 E2.62584
G1 X148.396 Y150.2 E2.65205
G1 X86.707 Y150.2 E4.70383
G1 X86.561 Y150.199 E4.70869
G1 X85.864 Y150.189 E4.73187
G1 X85.061 Y150.146 E4.75862
G1 X84.847 Y150.126 E4.76577
G1 X84.32 Y150.065 E4.78341
G1 X83.429 Y149.914 E4.81347
G1 X82.512 Y149.671 E4.84502
G1 X82.29 Y149.601 E4.85276
G1 X81.867 Y149.458 E4.86762
G1 X81.661 Y149.383 E4.87491
G1 X80.827 Y149.036 E4.90495
G1 X79.823 Y148.496 E4.94287
G1 X79.459 Y148.273 E4.95707
G1 X78.71 Y147.767 E4.98713
G1 X77.84 Y147.044 E5.02475
G1 X77.654 Y146.871 E5.0332
G1 X77.297 Y146.522 E5.04981
G1 X77.142 Y146.363 E5.05719
G1 X76.541 Y145.689 E5.08723
G1 X75.83 Y144.702 E5.12769
G1 X75.6 Y144.339 E5.14198
G1 X75.151 Y143.556 E5.172
G1 X74.773 Y142.736 E5.20203
G1 X74.603 Y142.29 E5.21791
G1 X74.448 Y141.853 E5.23333
G1 X74.184 Y140.989 E5.26338
G1 X73.997 Y140.105 E5.29343
G1 X73.928 Y139.607 E5.31015
G1 X73.877 Y139.163 E5.32502
G1 X73.811 Y138.142 E5.35905
G1 X73.8 Y137.288 E5.38745
G1 X73.801 Y97.561 E6.70878
G1 X73.811 Y96.863 E6.732
G1 X73.868 Y95.922 E6.76335
G1 X73.916 Y95.474 E6.77834
G1 X74.052 Y94.582 E6.80835
G1 X74.266 Y93.704 E6.83841
G1 X74.433 Y93.185 E6.85654
G1 X74.581 Y92.763 E6.87141
G1 X74.917 Y91.925 E6.90144
G1 X75.483 Y90.852 E6.94179
G1 X75.868 Y90.236 E6.96595
G1 X76.391 Y89.499 E6.99601
G1 X77.205 Y88.573 E7.03702
G1 X77.501 Y88.275 E7.05099
G1 X78.165 Y87.663 E7.08102
G1 X78.968 Y87.052 E7.11458
G1 X79.14 Y86.934 E7.12152
G1 X79.599 Y86.637 E7.1397
G1 X79.822 Y86.501 E7.14839
G1 X80.613 Y86.065 E7.17843
G1 X81.632 Y85.629 E7.21529
G1 X82.13 Y85.452 E7.23287
G1 X82.354 Y85.378 E7.24072
G1 X83.224 Y85.133 E7.27078
G1 X84.377 Y84.931 E7.30971
G1 X84.816 Y84.88 E7.32441
G1 X85.838 Y84.813 E7.35848
G1 X86.719 Y84.801 E7.38778
G1 X148.293 Y84.8 E9.43574
G1 X148.439 Y84.801 E9.4406
G1 X149.137 Y84.811 E9.46382
G0 F6000 X149.143 Y84.411
G1 F1200 X149.982 Y84.456 E9.49176
G1 X150.195 Y84.476 E9.49888
G1 X150.73 Y84.538 E9.51679
G1 X151.638 Y84.691 E9.54742
G1 X152.609 Y84.948 E9.58082
G1 X152.831 Y85.018 E9.58857
G1 X153.475 Y85.242 E9.61124
G1 X154.326 Y85.594 E9.64187
G1 X155.386 Y86.163 E9.68189
G1 X155.75 Y86.386 E9.69609
G1 X156.514 Y86.901 E9.72673
G1 X157.374 Y87.609 E9.76378
G1 X157.541 Y87.762 E9.77131
G1 X157.94 Y88.148 E9.78978
G1 X158.111 Y88.322 E9.79789
G1 X158.727 Y89.006 E9.82851
G1 X159.507 Y90.082 E9.87271
G1 X159.74 Y90.45 E9.8872
G1 X160.198 Y91.248 E9.9178
G1 X160.585 Y92.083 E9.94841
G1 X160.769 Y92.561 E9.96545
G1 X160.923 Y92.993 E9.9807
G1 X161.194 Y93.872 E10.01129
G1 X161.388 Y94.773 E10.04195
G1 X161.467 Y95.323 E10.06043
G1 X161.518 Y95.76 E10.07506
G1 X161.588 Y96.828 E10.11066
G1 X161.6 Y97.712 E10.14006
G1 X161.599 Y137.445 E11.46159
G1 X161.589 Y138.143 E11.48481
G1 X161.529 Y139.125 E11.51753
G1 X161.482 Y139.562 E11.53215
G1 X161.344 Y140.472 E11.56276
G1 X161.128 Y141.367 E11.59338
G1 X160.964 Y141.884 E11.61142
G1 X160.815 Y142.316 E11.62662
G1 X160.477 Y143.173 E11.65726
G1 X159.875 Y144.327 E11.70055
G1 X159.757 Y144.523 E11.70816
G1 X159.435 Y145.03 E11.72814
G1 X158.899 Y145.779 E11.75877
G1 X158.077 Y146.71 E11.80008
G1 X157.787 Y147.002 E11.81377
G1 X157.111 Y147.626 E11.84437
G1 X156.338 Y148.22 E11.87679
G1 X156.162 Y148.343 E11.88393
G1 X155.604 Y148.708 E11.90611
G1 X155.384 Y148.842 E11.91468
G1 X154.578 Y149.286 E11.94528
G1 X153.565 Y149.724 E11.98199
G1 X153.366 Y149.798 E11.98905
G1 X152.786 Y149.998 E12.00946
G1 X151.901 Y150.249 E12.04005
G1 X150.665 Y150.467 E12.0818
G1 X150.215 Y150.519 E12.09686
G1 X149.192 Y150.587 E12.13097
G1 X148.396 Y150.6 E12.15744
G1 X86.707 Y150.6 E14.20923
G1 X86.555 Y150.599 E14.21428
G1 X85.858 Y150.589 E14.23747
G1 X85.024 Y150.544 E14.26525
G1 X84.27 Y150.462 E14.29047
G1 X83.362 Y150.309 E14.3211
G1 X82.391 Y150.052 E14.35451
G1 X82.169 Y149.982 E14.36225
G1 X81.525 Y149.758 E14.38493
G1 X80.674 Y149.406 E14.41556
G1 X79.614 Y148.837 E14.45557
G1 X79.25 Y148.614 E14.46977
G1 X78.486 Y148.099 E14.50041
G1 X77.568 Y147.337 E14.5401
G1 X77.382 Y147.164 E14.54854
G1 X77.011 Y146.801 E14.56581
G1 X76.856 Y146.642 E14.57319
G1 X76.242 Y145.956 E14.60381
G1 X75.492 Y144.916 E14.64646
G1 X75.262 Y144.553 E14.66075
G1 X74.804 Y143.755 E14.69136
G1 X74.416 Y142.92 E14.72198
G1 X74.226 Y142.423 E14.73968
G1 X74.071 Y141.986 E14.7551
G1 X73.801 Y141.106 E14.78572
G1 X73.609 Y140.206 E14.81632
G1 X73.53 Y139.653 E14.8349
G1 X73.479 Y139.209 E14.84977
G1 X73.411 Y138.148 E14.88513
G1 X73.4 Y137.288 E14.91373
G1 X73.401 Y97.555 E16.23526
G1 X73.411 Y96.857 E16.25848
G1 X73.47 Y95.88 E16.29103
G1 X73.518 Y95.432 E16.30602
G1 X73.656 Y94.521 E16.33666
G1 X73.872 Y93.627 E16.36725
G1 X74.055 Y93.053 E16.38729
G1 X74.203 Y92.631 E16.40217
G1 X74.545 Y91.776 E16.43279
G1 X75.141 Y90.645 E16.47531
G1 X75.532 Y90.019 E16.49986
G1 X76.064 Y89.267 E16.5305
G1 X76.921 Y88.291 E16.5737
G1 X77.217 Y87.993 E16.58767
G1 X77.894 Y87.369 E16.61829
G1 X78.741 Y86.722 E16.65374
G1 X78.913 Y86.604 E16.66068
G1 X79.391 Y86.295 E16.67961
G1 X79.614 Y86.159 E16.6883
G1 X80.42 Y85.714 E16.71892
G1 X81.494 Y85.253 E16.75779
G1 X81.691 Y85.181 E16.76477
G1 X82.229 Y84.998 E16.78367
G1 X83.115 Y84.747 E16.8143
G1 X84.331 Y84.534 E16.85536
G1 X84.77 Y84.483 E16.87006
G1 X85.832 Y84.413 E16.90546
G1 X86.719 Y84.401 E16.93496
G1 X148.293 Y84.4 E18.98292
G1 X148.445 Y84.401 E18.98798
G1 X149.143 Y84.411 E19.0112
G0 F6000 X149.149 Y84.011
G1 F1200 X150.019 Y84.058 E19.04017
G1 X150.779 Y84.141 E19.0656
G1 X151.704 Y84.297 E19.0968
G1 X152.729 Y84.566 E19.13205
G1 X152.951 Y84.636 E19.13979
G1 X153.612 Y84.866 E19.16307
G1 X154.479 Y85.224 E19.19427
G1 X155.595 Y85.822 E19.23638
G1 X155.959 Y86.045 E19.25058
G1 X156.737 Y86.569 E19.28177
G1 X157.644 Y87.314 E19.32081
G1 X157.811 Y87.467 E19.32835
G1 X158.226 Y87.868 E19.34754
G1 X158.397 Y88.042 E19.35565
G1 X159.025 Y88.738 E19.38683
G1 X159.845 Y89.868 E19.43327
G1 X160.078 Y90.236 E19.44776
G1 X160.545 Y91.049 E19.47894
G1 X160.942 Y91.899 E19.51014
G1 X161.145 Y92.426 E19.52893
G1 X161.299 Y92.858 E19.54418
G1 X161.576 Y93.754 E19.57537
G1 X161.776 Y94.671 E19.60659
G1 X161.864 Y95.277 E19.62696
G1 X161.915 Y95.714 E19.64159
G1 X161.988 Y96.822 E19.67852
G1 X162 Y97.712 E19.70813
G1 X161.999 Y137.451 E21.02985
G1 X161.989 Y138.149 E21.05307
G1 X161.927 Y139.167 E21.08699
G1 X161.88 Y139.604 E21.10161
G1 X161.74 Y140.532 E21.13283
G1 X161.522 Y141.444 E21.16401
G1 X161.342 Y142.015 E21.18393
G1 X161.193 Y142.447 E21.19912
G1 X160.85 Y143.319 E21.23029
G1 X160.218 Y144.534 E21.27584
G1 X160.1 Y144.73 E21.28345
G1 X159.77 Y145.249 E21.30391
G1 X159.224 Y146.012 E21.33511
G1 X158.361 Y146.991 E21.37852
G1 X158.071 Y147.283 E21.39221
G1 X157.382 Y147.92 E21.42342
G1 X156.567 Y148.548 E21.45764
G1 X156.391 Y148.671 E21.46478
G1 X155.812 Y149.05 E21.4878
G1 X155.592 Y149.184 E21.49636
G1 X154.771 Y149.637 E21.52755
G1 X153.704 Y150.099 E21.56622
G1 X153.505 Y150.173 E21.57329
G1 X152.912 Y150.377 E21.59414
G1 X152.011 Y150.634 E21.62531
G1 X150.711 Y150.864 E21.66922
G1 X150.261 Y150.916 E21.68428
G1 X149.199 Y150.987 E21.71968
G1 X148.396 Y151 E21.74639
G1 X86.707 Y151 E23.79818
G1 X86.549 Y150.999 E23.80343
G1 X85.852 Y150.989 E23.82662
G1 X84.986 Y150.942 E23.85546
G1 X84.221 Y150.859 E23.88106
G1 X83.296 Y150.703 E23.91226
G1 X82.271 Y150.434 E23.9475
G1 X82.049 Y150.364 E23.95525
G1 X81.388 Y150.134 E23.97852
G1 X80.521 Y149.776 E24.00972
G1 X79.405 Y149.178 E24.05183
G1 X79.041 Y148.955 E24.06603
G1 X78.263 Y148.431 E24.09723
G1 X77.295 Y147.63 E24.13902
G1 X77.109 Y147.457 E24.14747
G1 X76.724 Y147.08 E24.16539
G1 X76.569 Y146.921 E24.17277
G1 X75.944 Y146.223 E24.20394
G1 X75.154 Y145.13 E24.24879
G1 X74.924 Y144.767 E24.26309
G1 X74.456 Y143.954 E24.29429
G1 X74.06 Y143.105 E24.32544
G1 X73.849 Y142.557 E24.34498
G1 X73.694 Y142.12 E24.3604
G1 X73.418 Y141.224 E24.39158
G1 X73.22 Y140.307 E24.42278
G1 X73.133 Y139.698 E24.44324
G1 X73.082 Y139.254 E24.45811
G1 X73.011 Y138.154 E24.49477
G1 X73 Y137.288 E24.52358
G1 X73.001 Y97.549 E25.8453
G1 X73.011 Y96.851 E25.86852
G1 X73.073 Y95.837 E25.90231
G1 X73.121 Y95.389 E25.91729
G1 X73.26 Y94.462 E25.94847
G1 X73.478 Y93.55 E25.97966
G1 X73.678 Y92.921 E26.00161
G1 X73.826 Y92.499 E26.01648
G1 X74.174 Y91.628 E26.04768
G1 X74.799 Y90.438 E26.09239
G1 X75.196 Y89.802 E26.11732
G1 X75.737 Y89.036 E26.14851
G1 X76.638 Y88.009 E26.19395
G1 X76.934 Y87.711 E26.20792
G1 X77.622 Y87.074 E26.23911
G1 X78.515 Y86.392 E26.27648
G1 X78.687 Y86.274 E26.28342
G1 X79.183 Y85.954 E26.30305
G1 X79.406 Y85.818 E26.31174
G1 X80.226 Y85.364 E26.34291
G1 X81.357 Y84.877 E26.38387
G1 X81.554 Y84.805 E26.39085
G1 X82.103 Y84.618 E26.41014
G1 X83.006 Y84.362 E26.44135
G1 X84.285 Y84.136 E26.48455
G1 X84.724 Y84.085 E26.49925
G1 X85.826 Y84.013 E26.53598
G1 X86.719 Y84.001 E26.56569
G1 X148.293 Y84 E28.61365
G1 X148.451 Y84.001 E28.6189
G1 X149.149 Y84.011 E28.64212
G1 F2700 E23.64212
;MESH:ms_bottom.stl
G0 F6000 X148.712 Y94.336
G0 X148.713 Y95.42
G0 X85.725 Y95.81
G0 X85.232 Y96.047
G0 X84.896 Y96.47
G0 X84.771 Y97.051
G0 X84.807 Y138.277
G0 X84.999 Y138.673
G0 X85.687 Y139.361
;TYPE:WALL-INNER
G1 F2700 E28.64212
G1 F1200 X85.393 Y139.258 E28.65248
G1 X85.129 Y139.092 E28.66285
G1 X84.908 Y138.871 E28.67325
G1 X84.742 Y138.607 E28.68362
G1 X84.639 Y138.313 E28.69398
G1 X84.6 Y137.961 E28.70576
G1 X84.6 Y97.039 E30.06683
G1 X84.639 Y96.689 E30.07855
G1 X84.742 Y96.395 E30.08891
G1 X84.907 Y96.131 E30.09926
G1 X85.125 Y95.912 E30.10954
G1 X85.391 Y95.745 E30.11998
G1 X85.689 Y95.641 E30.13048
G1 X86.031 Y95.601 E30.14194
G1 X148.713 Y95.6 E32.22675
G1 X148.961 Y95.6 E32.235
G1 X149.313 Y95.639 E32.24677
G1 X149.607 Y95.742 E32.25714
G1 X149.871 Y95.908 E32.26751
G1 X150.092 Y96.129 E32.2779
G1 X150.258 Y96.393 E32.28828
G1 X150.361 Y96.687 E32.29864
G1 X150.4 Y97.039 E32.31042
G1 X150.4 Y137.961 E33.67149
G1 X150.361 Y138.311 E33.6832
G1 X150.258 Y138.605 E33.69356
G1 X150.093 Y138.869 E33.70392
G1 X149.875 Y139.088 E33.71419
G1 X149.609 Y139.255 E33.72464
G1 X149.311 Y139.359 E33.73514
G1 X148.967 Y139.399 E33.74666
G1 X148.712 Y139.4 E33.75514
G1 X86.039 Y139.4 E35.83965
G1 X85.687 Y139.361 E35.85143
G0 F6000 X85.6 Y139.754
;TYPE:WALL-OUTER
G1 F1200 X85.216 Y139.619 E35.86497
G1 X84.878 Y139.407 E35.87824
G1 X84.593 Y139.122 E35.89164
G1 X84.381 Y138.784 E35.90491
G1 X84.246 Y138.4 E35.91845
G1 X84.2 Y137.987 E35.93227
G1 X84.2 Y97.013 E37.29507
G1 X84.246 Y96.602 E37.30883
G1 X84.379 Y96.219 E37.32231
G1 X84.59 Y95.883 E37.33551
G1 X84.877 Y95.595 E37.34903
G1 X85.216 Y95.382 E37.36235
G1 X85.596 Y95.249 E37.37574
G1 X86.011 Y95.201 E37.38964
G1 X148.713 Y95.2 E39.47511
G1 X148.987 Y95.2 E39.48423
G1 X149.4 Y95.246 E39.49805
G1 X149.784 Y95.381 E39.51158
G1 X150.122 Y95.593 E39.52486
G1 X150.407 Y95.878 E39.53826
G1 X150.619 Y96.216 E39.55153
G1 X150.754 Y96.6 E39.56507
G1 X150.8 Y97.013 E39.57889
G1 X150.8 Y137.987 E40.94169
G1 X150.754 Y138.398 E40.95545
G1 X150.621 Y138.781 E40.96893
G1 X150.41 Y139.117 E40.98213
G1 X150.123 Y139.405 E40.99565
G1 X149.784 Y139.618 E41.00897
G1 X149.404 Y139.751 E41.02236
G1 X148.988 Y139.799 E41.03629
G1 X148.713 Y139.8 E41.04543
G1 X86.013 Y139.8 E43.13084
G1 X85.6 Y139.754 E43.14466
G0 F6000 X85.697 Y139.326
G0 X85.773 Y138.978
;TYPE:SKIN
G1 F1200 X85.562 Y138.904 E43.1521
G1 X85.371 Y138.784 E43.1596
G1 X85.216 Y138.629 E43.16689
G1 X85.096 Y138.438 E43.1744
G1 X85.022 Y138.227 E43.18183
G1 X84.99 Y137.936 E43.19157
G1 X84.99 Y97.064 E44.55098
G1 X85.022 Y96.775 E44.56065
G1 X85.096 Y96.565 E44.56806
G1 X85.214 Y96.374 E44.57552
G1 X85.37 Y96.218 E44.58286
G1 X85.559 Y96.1 E44.59027
G1 X85.775 Y96.024 E44.59789
G1 X86.058 Y95.991 E44.60736
G1 X148.713 Y95.99 E46.69128
G1 X148.936 Y95.99 E46.69869
G1 X149.227 Y96.022 E46.70843
G1 X149.438 Y96.096 E46.71587
G1 X149.629 Y96.216 E46.72337
G1 X149.784 Y96.371 E46.73066
G1 X149.904 Y96.562 E46.73816
G1 X149.978 Y96.773 E46.7456
G1 X150.01 Y97.064 E46.75534
G1 X150.01 Y137.936 E48.11475
G1 X149.978 Y138.225 E48.12442
G1 X149.904 Y138.435 E48.13182
G1 X149.786 Y138.626 E48.13929
G1 X149.63 Y138.782 E48.14663
G1 X149.441 Y138.9 E48.15404
G1 X149.225 Y138.976 E48.16165
G1 X148.938 Y139.009 E48.17126
G1 X148.71 Y139.01 E48.17885
G1 X86.064 Y139.01 E50.26246
G1 X85.773 Y138.978 E50.2722
G0 F6000 X85.5 Y138.674
G1 F1200 X85.322 Y138.496 E50.28057
G0 F6000 X85.149 Y137.758
G1 F1200 X86.24 Y138.848 E50.33186
G0 F6000 X86.805 Y138.848
G1 F1200 X85.149 Y137.192 E50.40976
G0 F6000 X85.149 Y136.627
G1 F1200 X87.371 Y138.848 E50.51425
G0 F6000 X87.937 Y138.848
G1 F1200 X85.149 Y136.061 E50.64537
G0 F6000 X85.149 Y135.495
G1 F1200 X88.502 Y138.848 E50.80308
G0 F6000 X89.068 Y138.848
G1 F1200 X85.149 Y134.93 E50.98739
G0 F6000 X85.149 Y134.364
G1 F1200 X89.634 Y138.848 E51.19833
G0 F6000 X90.199 Y138.848
G1 F1200 X85.149 Y133.798 E51.43587
G0 F6000 X85.149 Y133.233
G1 F1200 X90.765 Y138.848 E51.7
G0 F6000 X91.331 Y138.848
G1 F1200 X85.149 Y132.667 E51.99076
G0 F6000 X85.149 Y132.101
G1 F1200 X91.897 Y138.848 E52.30814
G0 F6000 X92.462 Y138.848
G1 F1200 X85.149 Y131.536 E52.6521
G0 F6000 X85.149 Y130.97
G1 F1200 X93.028 Y138.848 E53.02268
G0 F6000 X93.594 Y138.848
G1 F1200 X85.149 Y130.404 E53.41989
G0 F6000 X85.149 Y129.838
G1 F1200 X94.159 Y138.848 E53.84369
G0 F6000 X94.725 Y138.848
G1 F1200 X85.149 Y129.273 E54.29409
G0 F6000 X85.149 Y128.707
G1 F1200 X95.291 Y138.848 E54.77112
G0 F6000 X95.856 Y138.848
G1 F1200 X85.149 Y128.141 E55.27474
G0 F6000 X85.149 Y127.576
G1 F1200 X96.422 Y138.848 E55.80496
G0 F6000 X96.988 Y138.848
G1 F1200 X85.149 Y127.01 E56.36181
G0 F6000 X85.149 Y126.444
