;FLAVOR:Marlin
;TIME:2352
;Filament used: 1.3871m
;Layer height: 0.2
;MINX:74.7
;MINY:89.2
;MINZ:0.2
;MAXX:160.3
;MAXY:145.8
;MAXZ:2
;Generated with Cura_SteamEngine 4.6.1
M140 S50
M105
M190 S50
M104 S200
M105
M109 S200
M82 ;absolute extrusion mode
; Ender 3 Custom Start G-code
G92 E0 ; Reset Extruder
G28 ; Home all axes
G1 Z2.0 F3000 ; Move Z Axis up little to prevent scratching of Heat Bed
G1 X0.1 Y20 Z0.3 F5000.0 ; Move to start position
G1 X0.1 Y200.0 Z0.3 F1500.0 E15 ; Draw the first line
G1 X0.4 Y200.0 Z0.3 F5000.0 ; Move to side a little
G1 X0.4 Y20 Z0.3 F1500.0 E30 ; Draw the second line
G92 E0 ; Reset Extruder
G1 Z2.0 F3000 ; Move Z Axis up little to prevent scratching of Heat Bed
G1 X5 Y20 Z0.3 F5000.0 ; Move over to prevent blob squish
G92 E0
G92 E0
G1 F2700 E-5
;LAYER_COUNT:10
;LAYER:0
M107
G0 F6000 X147.937 Y90.011 Z0.2
;TYPE:SKIRT
G1 F2700 E0
G1 F1200 X148.877 Y90.068 E0.03132
G1 X149.204 Y90.103 E0.04226
G1 X150.096 Y90.239 E0.07227
G1 X150.974 Y90.453 E0.10233
G1 X151.406 Y90.589 E0.11739
G1 X151.732 Y90.7 E0.12885
G1 X152.573 Y91.029 E0.15888
G1 X153.382 Y91.431 E0.18893
G1 X153.831 Y91.694 E0.20624
G1 X154.114 Y91.87 E0.21732
G1 X154.859 Y92.381 E0.24737
G1 X155.556 Y92.955 E0.2774
G1 X155.939 Y93.32 E0.295
G1 X156.172 Y93.553 E0.30596
G1 X156.782 Y94.219 E0.33599
G1 X157.563 Y95.285 E0.37995
G1 X157.728 Y95.544 E0.39016
G1 X158.179 Y96.326 E0.42019
G1 X158.679 Y97.452 E0.46116
G1 X158.799 Y97.773 E0.47256
G1 X159.078 Y98.632 E0.5026
G1 X159.279 Y99.513 E0.53266
G1 X159.366 Y100.076 E0.5516
G1 X159.41 Y100.427 E0.56337
G1 X159.488 Y101.527 E0.60005
G1 X159.5 Y102.361 E0.62779
G1 X159.499 Y105.639 E0.73682
G1 X159.489 Y106.337 E0.76003
G1 X159.442 Y107.184 E0.78825
G1 X159.269 Y108.884 E0.84508
G1 X159.052 Y111.438 E0.93033
G1 X158.91 Y113.965 E1.01452
G1 X158.839 Y116.496 E1.09873
G1 X158.841 Y119.031 E1.18304
G1 X158.914 Y121.6 E1.26852
G1 X159.057 Y124.094 E1.35161
G1 X159.278 Y126.683 E1.43804
G1 X159.423 Y128.036 E1.48329
G1 X159.47 Y128.648 E1.50371
G1 X159.489 Y129.056 E1.51729
G1 X159.5 Y129.53 E1.53306
G1 X159.499 Y132.739 E1.6398
G1 X159.489 Y133.436 E1.66298
G1 X159.431 Y134.389 E1.69474
G1 X159.396 Y134.712 E1.70554
G1 X159.259 Y135.604 E1.73556
G1 X158.938 Y136.819 E1.77735
G1 X158.839 Y137.118 E1.78783
G1 X158.517 Y137.962 E1.81788
G1 X158.123 Y138.774 E1.84789
G1 X157.897 Y139.168 E1.863
G1 X157.716 Y139.469 E1.87468
G1 X157.217 Y140.222 E1.90473
G1 X156.653 Y140.927 E1.93476
G1 X156.262 Y141.35 E1.95392
G1 X156.025 Y141.592 E1.96518
G1 X155.366 Y142.208 E1.99519
G1 X154.654 Y142.764 E2.02523
G1 X154.263 Y143.029 E2.04094
G1 X153.993 Y143.203 E2.05163
G1 X153.213 Y143.658 E2.08166
G1 X152.396 Y144.042 E2.11168
G1 X151.941 Y144.219 E2.12792
G1 X151.629 Y144.332 E2.13896
G1 X150.768 Y144.602 E2.16897
G1 X149.617 Y144.837 E2.20804
G1 X149.389 Y144.87 E2.21571
G1 X148.139 Y144.973 E2.25742
G1 X146.824 Y144.998 E2.30117
G1 X144.78 Y145 E2.36915
G1 X87.907 Y145 E4.26075
G1 X87.761 Y144.999 E4.26561
G1 X87.064 Y144.989 E4.2888
G1 X86.118 Y144.931 E4.32032
G1 X85.793 Y144.896 E4.33119
G1 X84.9 Y144.76 E4.36123
G1 X83.669 Y144.435 E4.40358
G1 X83.362 Y144.333 E4.41434
G1 X82.518 Y144.01 E4.4444
G1 X81.707 Y143.615 E4.4744
G1 X81.273 Y143.365 E4.49106
G1 X80.984 Y143.189 E4.50231
G1 X80.234 Y142.685 E4.53237
G1 X79.532 Y142.117 E4.5624
G1 X79.152 Y141.764 E4.57965
G1 X78.91 Y141.527 E4.59092
G1 X78.294 Y140.868 E4.62092
G1 X77.738 Y140.156 E4.65097
G1 X77.475 Y139.768 E4.66656
G1 X77.297 Y139.492 E4.67748
G1 X76.842 Y138.712 E4.70752
G1 X76.457 Y137.895 E4.73756
G1 X76.272 Y137.418 E4.75457
G1 X76.159 Y137.104 E4.76567
G1 X75.891 Y136.241 E4.79573
G1 X75.651 Y135.035 E4.83662
G1 X75.617 Y134.787 E4.84495
G1 X75.524 Y133.587 E4.88498
G1 X75.5 Y132.188 E4.93152
G1 X75.501 Y117.263 E5.42793
G1 X75.519 Y116.263 E5.46119
G1 X75.572 Y115.016 E5.50271
G1 X75.647 Y112.404 E5.58962
G1 X75.647 Y109.868 E5.67397
G1 X75.575 Y107.296 E5.75954
G1 X75.516 Y106.077 E5.80014
G1 X75.5 Y105.364 E5.82386
G1 X75.501 Y102.238 E5.92783
G1 X75.511 Y101.56 E5.95038
G1 X75.556 Y100.738 E5.97776
G1 X75.576 Y100.529 E5.98474
G1 X75.724 Y99.52 E6.01866
G1 X75.764 Y99.318 E6.02551
G1 X75.979 Y98.44 E6.05558
G1 X76.174 Y97.841 E6.07653
G1 X76.263 Y97.594 E6.08526
G1 X76.606 Y96.759 E6.11528
G1 X77.209 Y95.646 E6.15739
G1 X77.384 Y95.366 E6.16837
G1 X77.896 Y94.622 E6.19841
G1 X78.472 Y93.926 E6.22846
G1 X78.806 Y93.575 E6.24457
G1 X79.036 Y93.344 E6.25541
G1 X79.701 Y92.733 E6.28545
G1 X80.766 Y91.95 E6.32942
G1 X81.041 Y91.774 E6.34027
G1 X81.822 Y91.321 E6.3703
G1 X82.641 Y90.939 E6.40036
G1 X83.11 Y90.759 E6.41707
G1 X83.421 Y90.648 E6.42805
G1 X84.284 Y90.382 E6.45809
G1 X85.599 Y90.131 E6.50262
G1 X85.947 Y90.088 E6.51428
G1 X87.037 Y90.012 E6.55062
G1 X87.896 Y90 E6.57919
G1 X147.093 Y90 E8.54809
G1 X147.239 Y90.001 E8.55295
G1 X147.937 Y90.011 E8.57617
G0 F6000 X147.943 Y89.611
G1 F1200 X148.919 Y89.67 E8.60869
G1 X149.246 Y89.705 E8.61963
G1 X150.156 Y89.843 E8.65024
G1 X151.051 Y90.059 E8.68086
G1 X151.535 Y90.211 E8.69773
G1 X151.861 Y90.322 E8.70919
G1 X152.718 Y90.656 E8.73978
G1 X153.544 Y91.064 E8.77042
G1 X154.042 Y91.355 E8.78961
G1 X154.325 Y91.531 E8.80069
G1 X155.085 Y92.05 E8.8313
G1 X155.797 Y92.634 E8.86193
G1 X156.222 Y93.037 E8.88141
G1 X156.455 Y93.27 E8.89237
G1 X157.077 Y93.948 E8.92297
G1 X157.638 Y94.678 E8.95359
G1 X157.9 Y95.07 E8.96927
G1 X158.065 Y95.329 E8.97949
G1 X158.525 Y96.126 E9.0101
G1 X159.054 Y97.312 E9.05329
G1 X159.174 Y97.633 E9.06469
G1 X159.459 Y98.509 E9.09532
G1 X159.666 Y99.406 E9.12594
G1 X159.763 Y100.027 E9.14685
G1 X159.807 Y100.378 E9.15861
G1 X159.888 Y101.521 E9.19673
G1 X159.9 Y102.361 E9.22467
G1 X159.899 Y105.645 E9.33389
G1 X159.889 Y106.343 E9.35711
G1 X159.84 Y107.223 E9.38643
G1 X159.666 Y108.926 E9.44336
G1 X159.451 Y111.459 E9.52791
G1 X159.31 Y113.964 E9.61136
G1 X159.239 Y116.507 E9.69598
G1 X159.241 Y119.02 E9.77956
G1 X159.314 Y121.565 E9.86424
G1 X159.459 Y124.109 E9.94899
G1 X159.672 Y126.605 E10.03231
G1 X159.821 Y127.993 E10.07874
G1 X159.87 Y128.629 E10.09996
G1 X159.889 Y129.037 E10.11354
G1 X159.9 Y129.53 E10.12994
G1 X159.899 Y132.745 E10.23687
G1 X159.889 Y133.442 E10.26006
G1 X159.828 Y134.432 E10.29305
G1 X159.793 Y134.755 E10.30385
G1 X159.654 Y135.665 E10.33447
G1 X159.318 Y136.945 E10.37849
G1 X159.219 Y137.244 E10.38896
G1 X158.892 Y138.104 E10.41956
G1 X158.491 Y138.933 E10.45019
G1 X158.24 Y139.375 E10.4671
G1 X158.059 Y139.676 E10.47878
G1 X157.551 Y140.443 E10.50938
G1 X156.978 Y141.164 E10.54001
G1 X156.548 Y141.63 E10.5611
G1 X156.311 Y141.872 E10.57237
G1 X155.639 Y142.501 E10.60298
G1 X154.915 Y143.069 E10.63359
G1 X154.48 Y143.365 E10.65109
G1 X154.21 Y143.539 E10.66177
G1 X153.415 Y144.004 E10.6924
G1 X152.583 Y144.398 E10.72302
G1 X152.078 Y144.595 E10.74105
G1 X151.766 Y144.708 E10.75209
G1 X150.887 Y144.984 E10.78273
G1 X149.674 Y145.233 E10.82392
G1 X149.446 Y145.266 E10.83158
G1 X148.147 Y145.373 E10.87493
G1 X146.824 Y145.398 E10.91894
G1 X144.78 Y145.4 E10.98693
G1 X87.907 Y145.4 E12.87853
G1 X87.755 Y145.399 E12.88359
G1 X87.058 Y145.389 E12.90677
G1 X86.075 Y145.329 E12.93953
G1 X85.75 Y145.294 E12.9504
G1 X84.84 Y145.156 E12.98101
G1 X83.543 Y144.814 E13.02562
G1 X83.236 Y144.712 E13.03638
G1 X82.376 Y144.384 E13.067
G1 X81.547 Y143.983 E13.09763
G1 X81.065 Y143.706 E13.11612
G1 X80.776 Y143.53 E13.12737
G1 X80.011 Y143.018 E13.15799
G1 X79.293 Y142.441 E13.18862
G1 X78.872 Y142.05 E13.20773
G1 X78.63 Y141.813 E13.219
G1 X78.001 Y141.141 E13.24961
G1 X77.433 Y140.417 E13.28022
G1 X77.139 Y139.985 E13.2976
G1 X76.961 Y139.709 E13.30852
G1 X76.496 Y138.914 E13.33916
G1 X76.102 Y138.082 E13.36977
G1 X75.895 Y137.553 E13.38867
G1 X75.782 Y137.239 E13.39977
G1 X75.508 Y136.36 E13.43039
G1 X75.254 Y135.09 E13.47347
G1 X75.22 Y134.842 E13.48179
G1 X75.124 Y133.594 E13.52342
G1 X75.1 Y132.188 E13.5702
G1 X75.101 Y117.258 E14.06677
G1 X75.12 Y116.246 E14.10043
G1 X75.171 Y115.06 E14.13992
G1 X75.247 Y112.392 E14.22869
G1 X75.247 Y109.879 E14.31227
G1 X75.176 Y107.329 E14.39712
G1 X75.116 Y106.088 E14.43844
G1 X75.1 Y105.364 E14.46253
G1 X75.101 Y102.232 E14.5667
G1 X75.111 Y101.554 E14.58925
G1 X75.158 Y100.7 E14.6177
G1 X75.178 Y100.491 E14.62468
G1 X75.332 Y99.442 E14.65995
G1 X75.372 Y99.24 E14.6668
G1 X75.59 Y98.345 E14.69744
G1 X75.798 Y97.706 E14.71979
G1 X75.887 Y97.459 E14.72852
G1 X76.236 Y96.607 E14.75914
G1 X76.87 Y95.434 E14.80349
G1 X77.045 Y95.154 E14.81447
G1 X77.567 Y94.395 E14.84511
G1 X78.152 Y93.685 E14.87571
G1 X78.522 Y93.293 E14.89364
G1 X78.752 Y93.062 E14.90448
G1 X79.43 Y92.438 E14.93513
G1 X80.159 Y91.876 E14.96574
G1 X80.55 Y91.613 E14.98141
G1 X80.825 Y91.437 E14.99227
G1 X81.621 Y90.975 E15.02288
G1 X82.455 Y90.583 E15.05353
G1 X82.976 Y90.382 E15.07211
G1 X83.287 Y90.271 E15.08309
G1 X84.167 Y89.999 E15.11373
G1 X85.067 Y89.805 E15.14435
G1 X85.55 Y89.734 E15.16059
G1 X85.898 Y89.691 E15.17225
G1 X87.031 Y89.612 E15.21002
G1 X87.896 Y89.6 E15.2388
G1 X147.093 Y89.6 E17.2077
G1 X147.245 Y89.601 E17.21275
G1 X147.943 Y89.611 E17.23597
G0 F6000 X147.949 Y89.211
G1 F1200 X148.962 Y89.272 E17.26972
G1 X149.289 Y89.307 E17.28066
G1 X150.216 Y89.447 E17.31184
G1 X151.128 Y89.665 E17.34303
G1 X151.664 Y89.832 E17.3617
G1 X151.99 Y89.943 E17.37316
G1 X152.864 Y90.283 E17.40435
G1 X153.706 Y90.696 E17.43554
G1 X154.253 Y91.015 E17.4566
G1 X154.536 Y91.191 E17.46769
G1 X155.311 Y91.72 E17.4989
G1 X156.038 Y92.313 E17.5301
G1 X156.505 Y92.754 E17.55146
G1 X156.738 Y92.987 E17.56242
G1 X157.372 Y93.678 E17.59361
G1 X157.946 Y94.42 E17.62482
G1 X158.237 Y94.855 E17.64222
G1 X158.402 Y95.114 E17.65244
G1 X158.872 Y95.925 E17.68361
G1 X159.429 Y97.172 E17.72904
G1 X159.549 Y97.493 E17.74044
G1 X159.839 Y98.385 E17.77163
G1 X160.053 Y99.298 E17.80282
G1 X160.16 Y99.977 E17.82568
G1 X160.204 Y100.328 E17.83745
G1 X160.287 Y101.514 E17.87699
G1 X160.3 Y102.361 E17.90517
G1 X160.299 Y105.651 E18.01459
G1 X160.289 Y106.349 E18.03781
G1 X160.238 Y107.262 E18.06823
G1 X160.103 Y108.628 E18.11388
G1 X160.064 Y108.969 E18.1253
G1 X159.851 Y111.481 E18.20914
G1 X159.71 Y113.997 E18.29296
G1 X159.639 Y116.518 E18.37684
G1 X159.641 Y119.043 E18.46082
G1 X159.712 Y121.533 E18.54367
G1 X159.856 Y124.051 E18.62756
G1 X160.076 Y126.624 E18.71345
G1 X160.218 Y127.951 E18.75784
G1 X160.269 Y128.61 E18.77982
G1 X160.288 Y129.018 E18.79341
G1 X160.3 Y129.53 E18.81044
G1 X160.299 Y132.751 E18.91757
G1 X160.289 Y133.448 E18.94076
G1 X160.226 Y134.475 E18.97498
G1 X160.191 Y134.798 E18.98579
G1 X160.05 Y135.725 E19.01697
G1 X159.697 Y137.071 E19.06325
G1 X159.598 Y137.37 E19.07373
G1 X159.266 Y138.247 E19.10492
G1 X158.86 Y139.092 E19.1361
G1 X158.583 Y139.581 E19.15479
G1 X158.402 Y139.882 E19.16647
G1 X157.885 Y140.664 E19.19765
G1 X157.303 Y141.4 E19.22886
G1 X156.834 Y141.91 E19.25191
G1 X156.597 Y142.152 E19.26317
G1 X155.913 Y142.793 E19.29435
G1 X155.176 Y143.374 E19.32556
G1 X154.697 Y143.701 E19.34485
G1 X154.427 Y143.875 E19.35554
G1 X153.617 Y144.349 E19.38675
G1 X152.771 Y144.753 E19.41793
G1 X152.214 Y144.972 E19.43784
G1 X151.902 Y145.085 E19.44888
G1 X151.007 Y145.366 E19.48008
G1 X149.732 Y145.629 E19.52338
G1 X149.504 Y145.662 E19.53104
G1 X148.155 Y145.773 E19.57606
G1 X146.825 Y145.798 E19.6203
G1 X144.781 Y145.8 E19.68829
G1 X87.907 Y145.8 E21.57992
G1 X87.749 Y145.799 E21.58518
G1 X87.052 Y145.789 E21.60836
G1 X86.032 Y145.727 E21.64235
G1 X85.707 Y145.692 E21.65322
G1 X84.78 Y145.552 E21.68441
G1 X83.868 Y145.333 E21.7156
G1 X83.417 Y145.194 E21.7313
G1 X83.11 Y145.092 E21.74206
G1 X82.233 Y144.759 E21.77326
G1 X81.388 Y144.352 E21.80445
G1 X80.857 Y144.048 E21.8248
G1 X80.568 Y143.872 E21.83606
G1 X79.788 Y143.35 E21.86728
G1 X79.056 Y142.764 E21.89846
G1 X78.592 Y142.336 E21.91946
G1 X78.35 Y142.099 E21.93072
G1 X77.709 Y141.415 E21.9619
G1 X77.128 Y140.678 E21.99312
G1 X76.803 Y140.202 E22.01229
G1 X76.625 Y139.926 E22.02321
G1 X76.151 Y139.117 E22.0544
G1 X75.747 Y138.27 E22.08561
G1 X75.519 Y137.689 E22.10637
G1 X75.406 Y137.375 E22.11747
G1 X75.126 Y136.48 E22.14866
G1 X74.858 Y135.144 E22.19398
G1 X74.824 Y134.896 E22.2023
G1 X74.724 Y133.601 E22.2455
G1 X74.7 Y132.188 E22.29251
G1 X74.701 Y117.252 E22.78928
G1 X74.72 Y116.229 E22.82331
G1 X74.774 Y114.959 E22.86559
G1 X74.847 Y112.416 E22.9502
G1 X74.847 Y109.89 E23.03422
G1 X74.775 Y107.316 E23.11986
G1 X74.716 Y106.099 E23.16039
G1 X74.7 Y105.364 E23.18484
G1 X74.701 Y102.226 E23.28921
G1 X74.711 Y101.548 E23.31176
G1 X74.76 Y100.662 E23.34128
G1 X74.78 Y100.453 E23.34826
G1 X74.94 Y99.364 E23.38487
G1 X74.98 Y99.162 E23.39172
G1 X75.201 Y98.251 E23.4229
G1 X75.421 Y97.57 E23.4467
G1 X75.51 Y97.323 E23.45543
G1 X75.866 Y96.455 E23.48664
G1 X76.531 Y95.222 E23.53323
G1 X76.706 Y94.942 E23.54421
G1 X77.237 Y94.169 E23.5754
G1 X77.831 Y93.443 E23.6066
G1 X78.239 Y93.011 E23.62637
G1 X78.469 Y92.78 E23.63721
G1 X79.158 Y92.144 E23.6684
G1 X79.9 Y91.569 E23.69962
G1 X80.334 Y91.276 E23.71703
G1 X80.609 Y91.1 E23.72789
G1 X81.42 Y90.629 E23.75909
G1 X82.268 Y90.228 E23.79029
G1 X82.841 Y90.005 E23.81074
G1 X83.152 Y89.894 E23.82172
G1 X84.048 Y89.617 E23.85291
G1 X84.965 Y89.417 E23.88413
G1 X85.501 Y89.337 E23.90215
G1 X85.849 Y89.294 E23.91382
G1 X87.025 Y89.212 E23.95302
G1 X87.896 Y89.2 E23.982
G1 X147.093 Y89.2 E25.9509
G1 X147.251 Y89.201 E25.95615
G1 X147.949 Y89.211 E25.97937
G1 F2700 E20.97937
;MESH:ms_cover.stl
G0 F6000 X147.77 Y99.536
G0 X147.771 Y100.619
G0 X148.407 Y102.186
G0 X148.502 Y103.473
G0 X148.518 Y105.418
G0 X139.372 Y105.772
G0 X139.372 Y129.628
G0 X148.518 Y129.982
G0 X148.501 Y131.527
G0 X146.531 Y130.798
G0 X145.74 Y131.805
G0 X145.609 Y132.127
G0 X145.562 Y132.469
G0 X145.593 Y132.814
G0 X145.712 Y133.142
G0 X146.401 Y133.986
;TYPE:WALL-INNER
G1 F2700 E25.97937
G1 F1200 X146.772 Y134.085 E25.99214
G1 X147.157 Y134.095 E26.00495
G1 X147.539 Y134.011 E26.01796
G1 X147.658 Y133.951 E26.02239
G1 X147.849 Y133.854 E26.02952
G1 X147.882 Y133.837 E26.03075
G1 X148.177 Y133.587 E26.04361
G1 X148.394 Y133.285 E26.05598
G1 X148.402 Y133.273 E26.05646
G1 X148.449 Y133.158 E26.06059
G1 X148.547 Y132.916 E26.06928
G1 X148.601 Y132.535 E26.08208
G1 X148.565 Y132.15 E26.09494
G1 X148.433 Y131.785 E26.10785
G1 X148.312 Y131.6 E26.1152
G1 X148.222 Y131.463 E26.12065
G1 X147.938 Y131.201 E26.1335
G1 X147.599 Y131.014 E26.14638
G1 X147.228 Y130.915 E26.15915
G1 X146.843 Y130.905 E26.17196
G1 X146.461 Y130.989 E26.18497
G1 X146.118 Y131.163 E26.19776
G1 X145.823 Y131.413 E26.21062
G1 X145.598 Y131.727 E26.22347
G1 X145.453 Y132.084 E26.23629
G1 X145.399 Y132.465 E26.24909
G1 X145.435 Y132.85 E26.26195
G1 X145.567 Y133.215 E26.27486
G1 X145.778 Y133.537 E26.28766
G1 X146.062 Y133.799 E26.30051
G1 X146.084 Y133.812 E26.30136
G1 X146.401 Y133.986 E26.31339
G0 F6000 X146.551 Y133.612
;TYPE:WALL-OUTER
G1 F1200 X146.83 Y133.686 E26.32299
G1 X147.119 Y133.694 E26.33261
G1 X147.403 Y133.631 E26.34228
G1 X147.66 Y133.501 E26.35186
G1 X147.881 Y133.314 E26.36149
G1 X148.049 Y133.079 E26.3711
G1 X148.158 Y132.811 E26.38072
G1 X148.198 Y132.526 E26.39029
G1 X148.171 Y132.238 E26.39991
G1 X148.073 Y131.965 E26.40956
G1 X147.915 Y131.724 E26.41914
G1 X147.702 Y131.528 E26.42877
G1 X147.449 Y131.388 E26.43839
G1 X147.17 Y131.314 E26.44799
G1 X146.881 Y131.306 E26.45761
G1 X146.597 Y131.369 E26.46728
G1 X146.34 Y131.499 E26.47686
G1 X146.119 Y131.686 E26.48649
G1 X145.951 Y131.921 E26.4961
G1 X145.842 Y132.189 E26.50572
G1 X145.802 Y132.474 E26.51529
G1 X145.829 Y132.762 E26.52491
G1 X145.927 Y133.035 E26.53456
G1 X146.085 Y133.276 E26.54415
G1 X146.298 Y133.472 E26.55377
G1 X146.551 Y133.612 E26.56339
G0 F6000 X146.387 Y134.02
G1 F2700 E21.56339
G0 F6000 X145.712 Y133.142
G0 X145.593 Y132.814
G0 X145.562 Y132.469
G0 X145.609 Y132.127
G0 X145.74 Y131.805
G0 X146.403 Y130.827
G0 X148.353 Y131.351
G0 X148.501 Y131.527
G0 X148.518 Y129.982
G0 X139.372 Y129.628
G0 X139.372 Y105.772
G0 X148.518 Y105.418
G0 X148.502 Y103.473
G0 X147.508 Y103.915
G0 X146.401 Y103.986
;TYPE:WALL-INNER
G1 F2700 E26.56339
G1 F1200 X146.772 Y104.085 E26.57616
