;FLAVOR:Marlin
;TIME:2540
;Filament used: 1.55593m
;Layer height: 0.2
;MINX:71.7
;MINY:89.2
;MINZ:0.2
;MAXX:163.3
;MAXY:145.8
;MAXZ:2
;Generated with Cura_SteamEngine 4.6.1
M140 S50
M105
M190 S50
M104 S200
M105
M109 S200
M82 ;absolute extrusion mode
; Ender 3 Custom Start G-code
G92 E0 ; Reset Extruder
G28 ; Home all axes
G1 Z2.0 F3000 ; Move Z Axis up little to prevent scratching of Heat Bed
G1 X0.1 Y20 Z0.3 F5000.0 ; Move to start position
G1 X0.1 Y200.0 Z0.3 F1500.0 E15 ; Draw the first line
G1 X0.4 Y200.0 Z0.3 F5000.0 ; Move to side a little
G1 X0.4 Y20 Z0.3 F1500.0 E30 ; Draw the second line
G92 E0 ; Reset Extruder
G1 Z2.0 F3000 ; Move Z Axis up little to prevent scratching of Heat Bed
G1 X5 Y20 Z0.3 F5000.0 ; Move over to prevent blob squish
G92 E0
G92 E0
G1 F2700 E-5
;LAYER_COUNT:10
;LAYER:0
M107
G0 F6000 X150.937 Y90.011 Z0.2
;TYPE:SKIRT
G1 F2700 E0
G1 F1200 X151.877 Y90.068 E0.03132
G1 X152.204 Y90.103 E0.04226
G1 X153.096 Y90.239 E0.07227
G1 X153.974 Y90.453 E0.10233
G1 X154.406 Y90.589 E0.11739
G1 X154.732 Y90.7 E0.12885
G1 X155.573 Y91.029 E0.15888
G1 X156.382 Y91.431 E0.18893
G1 X156.831 Y91.694 E0.20624
G1 X157.114 Y91.87 E0.21732
G1 X157.859 Y92.381 E0.24737
G1 X158.556 Y92.955 E0.2774
G1 X158.939 Y93.32 E0.295
G1 X159.172 Y93.553 E0.30596
G1 X159.782 Y94.219 E0.33599
G1 X160.563 Y95.285 E0.37995
G1 X160.728 Y95.544 E0.39016
G1 X161.179 Y96.326 E0.42019
G1 X161.679 Y97.452 E0.46116
G1 X161.799 Y97.773 E0.47256
G1 X162.078 Y98.632 E0.5026
G1 X162.279 Y99.513 E0.53266
G1 X162.366 Y100.076 E0.5516
G1 X162.41 Y100.427 E0.56337
G1 X162.488 Y101.527 E0.60005
G1 X162.5 Y102.361 E0.62779
G1 X162.499 Y105.639 E0.73682
G1 X162.489 Y106.337 E0.76003
G1 X162.442 Y107.184 E0.78825
G1 X162.269 Y108.884 E0.84508
G1 X162.052 Y111.438 E0.93033
G1 X161.91 Y113.965 E1.01452
G1 X161.839 Y116.496 E1.09873
G1 X161.841 Y119.031 E1.18304
G1 X161.914 Y121.6 E1.26852
G1 X162.057 Y124.094 E1.35161
G1 X162.278 Y126.683 E1.43804
G1 X162.423 Y128.036 E1.48329
G1 X162.47 Y128.648 E1.50371
G1 X162.489 Y129.056 E1.51729
G1 X162.5 Y129.53 E1.53306
G1 X162.499 Y132.739 E1.6398
G1 X162.489 Y133.436 E1.66298
G1 X162.431 Y134.389 E1.69474
G1 X162.396 Y134.712 E1.70554
G1 X162.259 Y135.604 E1.73556
G1 X161.938 Y136.819 E1.77735
G1 X161.839 Y137.118 E1.78783
G1 X161.517 Y137.962 E1.81788
G1 X161.123 Y138.774 E1.84789
G1 X160.897 Y139.168 E1.863
G1 X160.716 Y139.469 E1.87468
G1 X160.217 Y140.222 E1.90473
G1 X159.653 Y140.927 E1.93476
G1 X159.262 Y141.35 E1.95392
G1 X159.025 Y141.592 E1.96518
G1 X158.366 Y142.208 E1.99519
G1 X157.654 Y142.764 E2.02523
G1 X157.263 Y143.029 E2.04094
G1 X156.993 Y143.203 E2.05163
G1 X156.213 Y143.658 E2.08166
G1 X155.396 Y144.042 E2.11168
G1 X154.941 Y144.219 E2.12792
G1 X154.629 Y144.332 E2.13896
G1 X153.768 Y144.602 E2.16897
G1 X152.644 Y144.833 E2.20714
G1 X152.427 Y144.865 E2.21443
G1 X151.143 Y144.972 E2.25729
G1 X149.788 Y144.997 E2.30236
G1 X87.531 Y145 E4.37304
G1 X84.761 Y144.999 E4.46517
G1 X84.064 Y144.989 E4.48835
G1 X83.118 Y144.931 E4.51988
G1 X82.793 Y144.896 E4.53075
G1 X81.9 Y144.76 E4.56079
G1 X80.669 Y144.435 E4.60314
G1 X80.362 Y144.333 E4.6139
G1 X79.518 Y144.01 E4.64396
G1 X78.707 Y143.615 E4.67396
G1 X78.273 Y143.365 E4.69062
G1 X77.984 Y143.189 E4.70187
G1 X77.234 Y142.685 E4.73193
G1 X76.532 Y142.117 E4.76196
G1 X76.152 Y141.764 E4.77921
G1 X75.91 Y141.527 E4.79048
G1 X75.294 Y140.868 E4.82048
G1 X74.738 Y140.156 E4.85053
G1 X74.475 Y139.768 E4.86612
G1 X74.297 Y139.492 E4.87704
G1 X73.842 Y138.712 E4.90707
G1 X73.457 Y137.895 E4.93711
G1 X73.272 Y137.418 E4.95413
G1 X73.159 Y137.104 E4.96523
G1 X72.891 Y136.241 E4.99528
G1 X72.651 Y135.035 E5.03618
G1 X72.617 Y134.787 E5.04451
G1 X72.525 Y133.629 E5.08315
G1 X72.5 Y132.415 E5.12353
G1 X72.501 Y114.062 E5.73395
G1 X72.519 Y112.87 E5.77361
G1 X72.576 Y110.825 E5.84165
G1 X72.576 Y108.231 E5.92793
G1 X72.548 Y106.957 E5.97031
G1 X72.5 Y105.188 E6.02917
G1 X72.501 Y102.238 E6.12729
G1 X72.511 Y101.56 E6.14984
G1 X72.556 Y100.738 E6.17722
G1 X72.576 Y100.529 E6.1842
G1 X72.724 Y99.52 E6.21812
G1 X72.764 Y99.318 E6.22497
G1 X72.979 Y98.44 E6.25504
G1 X73.174 Y97.841 E6.27599
G1 X73.263 Y97.594 E6.28472
G1 X73.606 Y96.759 E6.31474
G1 X74.209 Y95.646 E6.35685
G1 X74.384 Y95.366 E6.36783
G1 X74.896 Y94.622 E6.39787
G1 X75.472 Y93.926 E6.42792
G1 X75.806 Y93.575 E6.44403
G1 X76.036 Y93.344 E6.45487
G1 X76.701 Y92.733 E6.48491
G1 X77.766 Y91.95 E6.52887
G1 X78.041 Y91.774 E6.53973
G1 X78.822 Y91.321 E6.56976
G1 X79.641 Y90.939 E6.59982
G1 X80.11 Y90.759 E6.61653
G1 X80.421 Y90.648 E6.62751
G1 X81.284 Y90.382 E6.65755
G1 X82.599 Y90.131 E6.70207
G1 X82.947 Y90.088 E6.71374
G1 X84.037 Y90.012 E6.75008
G1 X84.896 Y90 E6.77865
G1 X150.093 Y90 E8.94711
G1 X150.239 Y90.001 E8.95197
G1 X150.937 Y90.011 E8.97519
G0 F6000 X150.943 Y89.611
G1 F1200 X151.919 Y89.67 E9.00771
G1 X152.246 Y89.705 E9.01865
G1 X153.156 Y89.843 E9.04926
G1 X154.051 Y90.059 E9.07988
G1 X154.535 Y90.211 E9.09675
G1 X154.861 Y90.322 E9.10821
G1 X155.718 Y90.656 E9.1388
G1 X156.544 Y91.064 E9.16944
G1 X157.042 Y91.355 E9.18863
G1 X157.325 Y91.531 E9.19971
G1 X158.085 Y92.05 E9.23032
G1 X158.797 Y92.634 E9.26095
G1 X159.222 Y93.037 E9.28043
G1 X159.455 Y93.27 E9.29139
G1 X160.077 Y93.948 E9.32199
G1 X160.638 Y94.678 E9.35261
G1 X160.9 Y95.07 E9.36829
G1 X161.065 Y95.329 E9.37851
G1 X161.525 Y96.126 E9.40911
G1 X162.054 Y97.312 E9.45231
G1 X162.174 Y97.633 E9.46371
G1 X162.459 Y98.509 E9.49434
G1 X162.666 Y99.406 E9.52496
G1 X162.763 Y100.027 E9.54587
G1 X162.807 Y100.378 E9.55763
G1 X162.888 Y101.521 E9.59575
G1 X162.9 Y102.361 E9.62369
G1 X162.899 Y105.645 E9.73291
G1 X162.889 Y106.343 E9.75613
G1 X162.84 Y107.223 E9.78545
G1 X162.666 Y108.926 E9.84238
G1 X162.451 Y111.459 E9.92693
G1 X162.31 Y113.964 E10.01038
G1 X162.239 Y116.507 E10.09499
G1 X162.241 Y119.02 E10.17858
G1 X162.314 Y121.565 E10.26326
G1 X162.459 Y124.109 E10.34801
G1 X162.672 Y126.605 E10.43133
G1 X162.821 Y127.993 E10.47776
G1 X162.87 Y128.629 E10.49898
G1 X162.889 Y129.037 E10.51256
G1 X162.9 Y129.53 E10.52896
G1 X162.899 Y132.745 E10.63589
G1 X162.889 Y133.442 E10.65908
G1 X162.828 Y134.432 E10.69207
G1 X162.793 Y134.755 E10.70287
G1 X162.654 Y135.665 E10.73349
G1 X162.318 Y136.945 E10.77751
G1 X162.219 Y137.244 E10.78798
G1 X161.892 Y138.104 E10.81858
G1 X161.491 Y138.933 E10.84921
G1 X161.24 Y139.375 E10.86612
G1 X161.059 Y139.676 E10.8778
G1 X160.551 Y140.443 E10.9084
G1 X159.978 Y141.164 E10.93903
G1 X159.548 Y141.63 E10.96012
G1 X159.311 Y141.872 E10.97139
G1 X158.639 Y142.501 E11.002
G1 X157.915 Y143.069 E11.03261
G1 X157.48 Y143.365 E11.05011
G1 X157.21 Y143.539 E11.06079
G1 X156.415 Y144.004 E11.09142
G1 X155.583 Y144.398 E11.12204
G1 X155.078 Y144.595 E11.14007
G1 X154.766 Y144.708 E11.15111
G1 X153.887 Y144.984 E11.18175
G1 X152.702 Y145.229 E11.222
G1 X152.485 Y145.261 E11.22929
G1 X151.151 Y145.372 E11.27382
G1 X149.789 Y145.397 E11.31912
G1 X87.532 Y145.4 E13.3898
G1 X84.755 Y145.399 E13.48216
G1 X84.058 Y145.389 E13.50535
G1 X83.075 Y145.329 E13.5381
G1 X82.75 Y145.294 E13.54898
G1 X81.84 Y145.156 E13.57959
G1 X80.543 Y144.814 E13.6242
G1 X80.236 Y144.712 E13.63496
G1 X79.376 Y144.384 E13.66557
G1 X78.547 Y143.983 E13.6962
G1 X78.065 Y143.706 E13.71469
G1 X77.776 Y143.53 E13.72595
G1 X77.011 Y143.018 E13.75657
G1 X76.293 Y142.441 E13.7872
G1 X75.872 Y142.05 E13.80631
G1 X75.63 Y141.813 E13.81758
G1 X75.001 Y141.141 E13.84819
G1 X74.433 Y140.417 E13.8788
G1 X74.139 Y139.985 E13.89618
G1 X73.961 Y139.709 E13.9071
G1 X73.496 Y138.914 E13.93773
G1 X73.102 Y138.082 E13.96835
G1 X72.895 Y137.553 E13.98725
G1 X72.782 Y137.239 E13.99835
G1 X72.508 Y136.36 E14.02897
G1 X72.254 Y135.09 E14.07205
G1 X72.22 Y134.842 E14.08037
G1 X72.125 Y133.638 E14.12054
G1 X72.1 Y132.415 E14.16123
G1 X72.101 Y114.056 E14.77185
G1 X72.119 Y112.859 E14.81167
G1 X72.176 Y110.814 E14.87971
G1 X72.176 Y108.24 E14.96532
G1 X72.146 Y106.896 E15.01003
G1 X72.1 Y105.188 E15.06686
G1 X72.101 Y102.232 E15.16518
G1 X72.111 Y101.554 E15.18773
G1 X72.158 Y100.7 E15.21618
G1 X72.178 Y100.491 E15.22316
G1 X72.332 Y99.442 E15.25843
G1 X72.372 Y99.24 E15.26528
G1 X72.59 Y98.345 E15.29591
G1 X72.798 Y97.706 E15.31827
G1 X72.887 Y97.459 E15.327
G1 X73.236 Y96.607 E15.35762
G1 X73.87 Y95.434 E15.40197
G1 X74.045 Y95.154 E15.41295
G1 X74.567 Y94.395 E15.44359
G1 X75.152 Y93.685 E15.47419
G1 X75.522 Y93.293 E15.49212
G1 X75.752 Y93.062 E15.50296
G1 X76.43 Y92.438 E15.53361
G1 X77.159 Y91.876 E15.56422
G1 X77.55 Y91.613 E15.57989
G1 X77.825 Y91.437 E15.59075
G1 X78.621 Y90.975 E15.62136
G1 X79.455 Y90.583 E15.65201
G1 X79.976 Y90.382 E15.67059
G1 X80.287 Y90.271 E15.68157
G1 X81.167 Y89.999 E15.71221
G1 X82.067 Y89.805 E15.74283
G1 X82.55 Y89.734 E15.75906
G1 X82.898 Y89.691 E15.77073
G1 X84.031 Y89.612 E15.8085
G1 X84.896 Y89.6 E15.83728
G1 X150.093 Y89.6 E18.00574
G1 X150.245 Y89.601 E18.01079
G1 X150.943 Y89.611 E18.03401
G0 F6000 X150.949 Y89.211
G1 F1200 X151.962 Y89.272 E18.06776
G1 X152.289 Y89.307 E18.0787
G1 X153.216 Y89.447 E18.10988
G1 X154.128 Y89.665 E18.14107
G1 X154.664 Y89.832 E18.15974
G1 X154.99 Y89.943 E18.1712
G1 X155.864 Y90.283 E18.20239
G1 X156.706 Y90.696 E18.23358
G1 X157.253 Y91.015 E18.25464
G1 X157.536 Y91.191 E18.26573
G1 X158.311 Y91.72 E18.29694
G1 X159.038 Y92.313 E18.32814
G1 X159.505 Y92.754 E18.3495
G1 X159.738 Y92.987 E18.36046
G1 X160.372 Y93.678 E18.39165
G1 X160.946 Y94.42 E18.42286
G1 X161.237 Y94.855 E18.44026
G1 X161.402 Y95.114 E18.45048
G1 X161.872 Y95.925 E18.48165
G1 X162.429 Y97.172 E18.52708
G1 X162.549 Y97.493 E18.53848
G1 X162.839 Y98.385 E18.56967
G1 X163.053 Y99.298 E18.60086
G1 X163.16 Y99.977 E18.62372
G1 X163.204 Y100.328 E18.63549
G1 X163.287 Y101.514 E18.67503
G1 X163.3 Y102.361 E18.70321
G1 X163.299 Y105.651 E18.81263
G1 X163.289 Y106.349 E18.83585
G1 X163.238 Y107.262 E18.86627
G1 X163.103 Y108.628 E18.91192
G1 X163.064 Y108.969 E18.92334
G1 X162.851 Y111.481 E19.00719
G1 X162.71 Y113.997 E19.091
G1 X162.639 Y116.518 E19.17488
G1 X162.641 Y119.043 E19.25886
G1 X162.712 Y121.533 E19.34171
G1 X162.856 Y124.051 E19.4256
G1 X163.076 Y126.624 E19.51149
G1 X163.218 Y127.951 E19.55588
G1 X163.269 Y128.61 E19.57786
G1 X163.288 Y129.018 E19.59145
G1 X163.3 Y129.53 E19.60848
G1 X163.299 Y132.751 E19.71561
G1 X163.289 Y133.448 E19.7388
G1 X163.226 Y134.475 E19.77302
G1 X163.191 Y134.798 E19.78383
G1 X163.05 Y135.725 E19.81501
G1 X162.697 Y137.071 E19.86129
G1 X162.598 Y137.37 E19.87177
G1 X162.266 Y138.247 E19.90296
G1 X161.86 Y139.092 E19.93414
G1 X161.583 Y139.581 E19.95283
G1 X161.402 Y139.882 E19.96451
G1 X160.885 Y140.664 E19.99569
G1 X160.303 Y141.4 E20.0269
G1 X159.834 Y141.91 E20.04995
G1 X159.597 Y142.152 E20.06121
G1 X158.913 Y142.793 E20.09239
G1 X158.176 Y143.374 E20.1236
G1 X157.697 Y143.701 E20.14289
G1 X157.427 Y143.875 E20.15358
G1 X156.617 Y144.349 E20.18479
G1 X155.771 Y144.753 E20.21597
G1 X155.214 Y144.972 E20.23588
G1 X154.902 Y145.085 E20.24692
G1 X154.007 Y145.366 E20.27812
G1 X152.761 Y145.624 E20.32044
G1 X152.544 Y145.656 E20.32774
G1 X151.159 Y145.772 E20.37396
G1 X149.789 Y145.797 E20.41954
G1 X87.532 Y145.8 E22.49021
G1 X84.749 Y145.799 E22.58277
G1 X84.052 Y145.789 E22.60596
G1 X83.032 Y145.727 E22.63995
G1 X82.707 Y145.692 E22.65082
G1 X81.78 Y145.552 E22.682
G1 X80.868 Y145.333 E22.7132
G1 X80.417 Y145.194 E22.72889
G1 X80.11 Y145.092 E22.73965
G1 X79.233 Y144.759 E22.77085
G1 X78.388 Y144.352 E22.80205
G1 X77.857 Y144.048 E22.8224
G1 X77.568 Y143.872 E22.83365
G1 X76.788 Y143.35 E22.86487
G1 X76.056 Y142.764 E22.89606
G1 X75.592 Y142.336 E22.91705
G1 X75.35 Y142.099 E22.92832
G1 X74.709 Y141.415 E22.9595
G1 X74.128 Y140.678 E22.99071
G1 X73.803 Y140.202 E23.00988
G1 X73.625 Y139.926 E23.0208
G1 X73.151 Y139.117 E23.05199
G1 X72.747 Y138.27 E23.0832
G1 X72.519 Y137.689 E23.10396
G1 X72.406 Y137.375 E23.11506
G1 X72.126 Y136.48 E23.14625
G1 X71.858 Y135.144 E23.19157
G1 X71.824 Y134.896 E23.1999
G1 X71.725 Y133.647 E23.24157
G1 X71.7 Y132.415 E23.28255
G1 X71.701 Y114.05 E23.89338
G1 X71.719 Y112.847 E23.93339
G1 X71.776 Y110.802 E24.00144
G1 X71.776 Y108.249 E24.08635
G1 X71.746 Y106.905 E24.13106
G1 X71.7 Y105.188 E24.18819
G1 X71.701 Y102.226 E24.28671
G1 X71.711 Y101.548 E24.30926
G1 X71.76 Y100.662 E24.33877
G1 X71.78 Y100.453 E24.34576
G1 X71.94 Y99.364 E24.38237
G1 X71.98 Y99.162 E24.38922
G1 X72.201 Y98.251 E24.42039
G1 X72.421 Y97.57 E24.4442
G1 X72.51 Y97.323 E24.45293
G1 X72.866 Y96.455 E24.48413
G1 X73.531 Y95.222 E24.53073
G1 X73.706 Y94.942 E24.54171
G1 X74.237 Y94.169 E24.5729
G1 X74.831 Y93.443 E24.6041
G1 X75.239 Y93.011 E24.62386
G1 X75.469 Y92.78 E24.63471
G1 X76.158 Y92.144 E24.66589
G1 X76.9 Y91.569 E24.69711
G1 X77.334 Y91.276 E24.71453
G1 X77.609 Y91.1 E24.72539
G1 X78.42 Y90.629 E24.75658
G1 X79.268 Y90.228 E24.78778
G1 X79.841 Y90.005 E24.80823
G1 X80.152 Y89.894 E24.81922
G1 X81.048 Y89.617 E24.85041
G1 X81.965 Y89.417 E24.88162
G1 X82.501 Y89.337 E24.89965
G1 X82.849 Y89.294 E24.91131
G1 X84.025 Y89.212 E24.95052
G1 X84.896 Y89.2 E24.97949
G1 X150.093 Y89.2 E27.14795
G1 X150.251 Y89.201 E27.15321
G1 X150.949 Y89.211 E27.17643
G1 F2700 E22.17643
;MESH:ms_cover_bt.stl
G0 F6000 X150.782 Y99.536
G0 X150.783 Y100.519
G0 X151.308 Y102.208
G0 X151.502 Y103.473
G0 X151.518 Y105.418
G0 X142.472 Y105.872
G0 X142.472 Y129.528
G0 X151.518 Y129.982
G0 X151.501 Y131.527
G0 X149.531 Y130.797
G0 X148.828 Y131.853
G0 X148.707 Y132.153
G0 X148.692 Y132.792
G0 X148.853 Y133.116
G0 X149.401 Y133.986
;TYPE:WALL-INNER
G1 F2700 E27.17643
G1 F1200 X149.772 Y134.085 E27.1892
G1 X150.157 Y134.095 E27.20201
G1 X150.539 Y134.011 E27.21502
G1 X150.658 Y133.951 E27.21945
G1 X150.849 Y133.854 E27.22657
G1 X150.882 Y133.837 E27.22781
G1 X151.177 Y133.587 E27.24067
G1 X151.394 Y133.285 E27.25304
G1 X151.402 Y133.273 E27.25352
G1 X151.449 Y133.158 E27.25765
G1 X151.547 Y132.916 E27.26633
G1 X151.601 Y132.535 E27.27913
G1 X151.565 Y132.15 E27.29199
G1 X151.433 Y131.785 E27.3049
G1 X151.312 Y131.6 E27.31226
G1 X151.222 Y131.463 E27.31771
G1 X150.938 Y131.201 E27.33056
G1 X150.599 Y131.014 E27.34344
G1 X150.228 Y130.915 E27.35621
G1 X149.843 Y130.905 E27.36902
G1 X149.461 Y130.989 E27.38203
G1 X149.118 Y131.163 E27.39482
G1 X148.823 Y131.413 E27.40768
G1 X148.598 Y131.727 E27.42053
G1 X148.453 Y132.084 E27.43334
G1 X148.399 Y132.465 E27.44614
G1 X148.435 Y132.85 E27.459
G1 X148.567 Y133.215 E27.47191
G1 X148.778 Y133.537 E27.48472
G1 X149.062 Y133.799 E27.49757
G1 X149.401 Y133.986 E27.51045
G0 F6000 X149.551 Y133.612
;TYPE:WALL-OUTER
G1 F1200 X149.83 Y133.686 E27.52005
G1 X150.119 Y133.694 E27.52966
G1 X150.403 Y133.631 E27.53934
G1 X150.66 Y133.501 E27.54892
G1 X150.881 Y133.314 E27.55855
G1 X151.049 Y133.079 E27.56815
G1 X151.158 Y132.811 E27.57778
G1 X151.198 Y132.526 E27.58735
G1 X151.171 Y132.238 E27.59697
G1 X151.073 Y131.965 E27.60662
G1 X150.915 Y131.724 E27.6162
G1 X150.702 Y131.528 E27.62583
G1 X150.449 Y131.388 E27.63545
G1 X150.17 Y131.314 E27.64505
G1 X149.881 Y131.306 E27.65466
G1 X149.597 Y131.369 E27.66434
G1 X149.34 Y131.499 E27.67392
G1 X149.119 Y131.686 E27.68355
G1 X148.951 Y131.921 E27.69315
G1 X148.842 Y132.189 E27.70278
G1 X148.802 Y132.474 E27.71235
G1 X148.829 Y132.762 E27.72197
G1 X148.927 Y133.035 E27.73162
G1 X149.085 Y133.276 E27.7412
G1 X149.298 Y133.472 E27.75083
G1 X149.551 Y133.612 E27.76045
G0 F6000 X149.387 Y134.02
G1 F2700 E22.76045
G0 F6000 X148.802 Y133.097
G0 X148.692 Y132.792
G0 X148.707 Y132.153
G0 X149.403 Y130.827
G0 X151.501 Y131.527
G0 X151.518 Y129.982
G0 X142.472 Y129.528
G0 X142.472 Y105.872
G0 X151.518 Y105.418
G0 X151.502 Y103.473
G0 X149.401 Y103.986
;TYPE:WALL-INNER
G1 F2700 E27.76045
G1 F1200 X149.772 Y104.085 E27.77322
G1 X150.157 Y104.095 E27.78603
G1 X150.539 Y104.011 E27.79904
G1 X150.882 Y103.837 E27.81183
G1 X151.177 Y103.587 E27.82469
G1 X151.311 Y103.4 E27.83234
G1 X151.402 Y103.273 E27.83754
G1 X151.547 Y102.916 E27.85035
G1 X151.601 Y102.535 E27.86315
G1 X151.565 Y102.15 E27.87601
G1 X151.448 Y101.826 E27.88747
G1 X151.433 Y101.785 E27.88892
G1 X151.376 Y101.698 E27.89238
