;FLAVOR:Marlin
;TIME:6912
;Filament used: 4.6846m
;Layer height: 0.2
;MINX:73.001
;MINY:84
;MINZ:0.2
;MAXX:162
;MAXY:151
;MAXZ:18
;Generated with Cura_SteamEngine 4.6.1
M140 S50
M105
M190 S50
M104 S200
M105
M109 S200
M82 ;absolute extrusion mode
; Ender 3 Custom Start G-code
G92 E0 ; Reset Extruder
G28 ; Home all axes
G1 Z2.0 F3000 ; Move Z Axis up little to prevent scratching of Heat Bed
G1 X0.1 Y20 Z0.3 F5000.0 ; Move to start position
G1 X0.1 Y200.0 Z0.3 F1500.0 E15 ; Draw the first line
G1 X0.4 Y200.0 Z0.3 F5000.0 ; Move to side a little
G1 X0.4 Y20 Z0.3 F1500.0 E30 ; Draw the second line
G92 E0 ; Reset Extruder
G1 Z2.0 F3000 ; Move Z Axis up little to prevent scratching of Heat Bed
G1 X5 Y20 Z0.3 F5000.0 ; Move over to prevent blob squish
G92 E0
G92 E0
G1 F2700 E-5
;LAYER_COUNT:90
;LAYER:0
M107
G0 F6000 X149.137 Y84.811 Z0.2
;TYPE:SKIRT
G1 F2700 E0
G1 F1200 X149.945 Y84.855 E0.02691
G1 X150.68 Y84.935 E0.0515
G1 X151.571 Y85.086 E0.08156
G1 X152.488 Y85.329 E0.11311
G1 X152.71 Y85.399 E0.12086
G1 X153.133 Y85.542 E0.13571
G1 X153.339 Y85.617 E0.143
G1 X154.173 Y85.964 E0.17304
G1 X155.177 Y86.504 E0.21096
G1 X155.541 Y86.727 E0.22516
G1 X156.29 Y87.233 E0.25522
G1 X157.099 Y87.9 E0.2901
G1 X157.264 Y88.051 E0.29753
G1 X157.652 Y88.426 E0.31548
G1 X157.825 Y88.602 E0.32369
G1 X158.429 Y89.273 E0.35372
G1 X159.046 Y90.106 E0.3882
G1 X159.157 Y90.273 E0.39486
G1 X159.504 Y90.828 E0.41664
G1 X159.937 Y91.62 E0.44666
G1 X160.391 Y92.692 E0.48538
G1 X160.548 Y93.132 E0.50092
G1 X160.813 Y93.995 E0.53094
G1 X161.001 Y94.879 E0.561
G1 X161.067 Y95.333 E0.57626
G1 X161.095 Y95.564 E0.584
G1 X161.144 Y96.076 E0.60111
G1 X161.169 Y96.432 E0.61298
G1 X161.193 Y96.997 E0.63179
G1 X161.2 Y97.555 E0.65035
G1 X161.199 Y137.425 E1.97643
G1 X161.189 Y138.134 E2.00001
G1 X161.146 Y138.939 E2.02682
G1 X161.126 Y139.153 E2.03397
G1 X161.065 Y139.68 E2.05162
G1 X160.914 Y140.571 E2.08168
G1 X160.624 Y141.633 E2.11829
G1 X160.484 Y142.055 E2.13308
G1 X160.162 Y142.898 E2.16309
G1 X159.546 Y144.096 E2.2079
G1 X159.409 Y144.324 E2.21674
G1 X159.105 Y144.804 E2.23564
G1 X158.579 Y145.539 E2.2657
G1 X157.793 Y146.428 E2.30517
G1 X157.503 Y146.72 E2.31886
G1 X156.839 Y147.332 E2.34889
G1 X155.813 Y148.092 E2.39136
G1 X155.421 Y148.346 E2.4069
G1 X154.642 Y148.803 E2.43694
G1 X153.471 Y149.331 E2.47966
G1 X153.264 Y149.409 E2.48702
G1 X152.685 Y149.61 E2.5074
G1 X151.816 Y149.859 E2.53747
G1 X150.6 Y150.073 E2.57853
G1 X150.152 Y150.124 E2.59353
G1 X149.184 Y150.187 E2.62579
G1 X148.396 Y150.2 E2.65201
G1 X86.707 Y150.2 E4.70379
G1 X86.561 Y150.199 E4.70865
G1 X85.864 Y150.189 E4.73183
G1 X85.061 Y150.146 E4.75858
G1 X84.847 Y150.126 E4.76573
G1 X84.32 Y150.065 E4.78337
G1 X83.429 Y149.914 E4.81343
G1 X82.512 Y149.671 E4.84498
G1 X82.29 Y149.601 E4.85272
G1 X81.867 Y149.458 E4.86757
G1 X81.661 Y149.383 E4.87487
G1 X80.827 Y149.036 E4.90491
G1 X79.812 Y148.489 E4.94326
G1 X79.449 Y148.266 E4.95743
G1 X78.701 Y147.76 E4.98747
G1 X77.861 Y147.062 E5.02379
G1 X77.674 Y146.889 E5.03226
G1 X77.298 Y146.523 E5.04972
G1 X77.142 Y146.363 E5.05715
G1 X76.541 Y145.689 E5.08718
G1 X75.825 Y144.695 E5.12793
G1 X75.596 Y144.333 E5.14218
G1 X75.147 Y143.549 E5.17223
G1 X74.61 Y142.309 E5.21717
G1 X74.454 Y141.872 E5.2326
G1 X74.188 Y141.009 E5.26264
G1 X73.938 Y139.698 E5.30703
G1 X73.906 Y139.44 E5.31567
G1 X73.856 Y138.937 E5.33249
G1 X73.837 Y138.68 E5.34106
G1 X73.81 Y138.065 E5.36153
G1 X73.801 Y137.331 E5.38595
G1 X73.801 Y97.564 E6.7086
G1 X73.811 Y96.857 E6.73212
G1 X73.873 Y95.869 E6.76505
G1 X73.92 Y95.448 E6.77914
G1 X74.06 Y94.556 E6.80917
G1 X74.385 Y93.341 E6.851
G1 X74.528 Y92.914 E6.86598
G1 X74.852 Y92.071 E6.89601
G1 X75.454 Y90.905 E6.93966
G1 X75.601 Y90.66 E6.94916
G1 X76.127 Y89.869 E6.98076
G1 X76.282 Y89.658 E6.98946
G1 X76.848 Y88.955 E7.01948
G1 X77.336 Y88.438 E7.04313
G1 X77.571 Y88.206 E7.05411
G1 X78.241 Y87.601 E7.08414
G1 X78.905 Y87.097 E7.11186
G1 X79.07 Y86.982 E7.11855
G1 X79.582 Y86.647 E7.1389
G1 X79.811 Y86.507 E7.14783
G1 X80.601 Y86.071 E7.17784
G1 X81.622 Y85.632 E7.21481
G1 X81.824 Y85.558 E7.22196
G1 X82.355 Y85.378 E7.24061
G1 X83.224 Y85.133 E7.27064
G1 X84.377 Y84.931 E7.30957
G1 X84.816 Y84.88 E7.32427
G1 X85.838 Y84.813 E7.35834
G1 X86.719 Y84.801 E7.38764
G1 X148.293 Y84.8 E9.4356
G1 X148.439 Y84.801 E9.44046
G1 X149.137 Y84.811 E9.46368
G0 F6000 X149.143 Y84.411
G1 F1200 X149.982 Y84.456 E9.49162
G1 X150.195 Y84.476 E9.49874
G1 X150.73 Y84.538 E9.51665
G1 X151.638 Y84.691 E9.54728
G1 X152.609 Y84.948 E9.58068
G1 X152.831 Y85.018 E9.58843
G1 X153.475 Y85.242 E9.6111
G1 X154.326 Y85.594 E9.64173
G1 X155.386 Y86.163 E9.68175
G1 X155.75 Y86.386 E9.69595
G1 X156.514 Y86.901 E9.72659
G1 X157.369 Y87.605 E9.76343
G1 X157.534 Y87.756 E9.77087
G1 X157.937 Y88.145 E9.7895
G1 X158.11 Y88.321 E9.7977
G1 X158.727 Y89.005 E9.82834
G1 X159.379 Y89.884 E9.86474
G1 X159.49 Y90.051 E9.87141
G1 X159.845 Y90.62 E9.89372
G1 X160.289 Y91.427 E9.92435
G1 X160.767 Y92.558 E9.96519
G1 X160.924 Y92.998 E9.98073
G1 X161.196 Y93.877 E10.01133
G1 X161.39 Y94.777 E10.04196
G1 X161.464 Y95.284 E10.059
G1 X161.492 Y95.515 E10.06674
G1 X161.543 Y96.048 E10.08455
G1 X161.568 Y96.404 E10.09642
G1 X161.593 Y96.991 E10.11596
G1 X161.6 Y97.555 E10.13472
G1 X161.599 Y137.43 E11.46096
G1 X161.589 Y138.139 E11.48455
G1 X161.544 Y138.976 E11.51243
G1 X161.462 Y139.73 E11.53765
G1 X161.309 Y140.638 E11.56828
G1 X161.004 Y141.759 E11.60692
G1 X160.864 Y142.181 E11.62171
G1 X160.536 Y143.041 E11.65232
G1 X160.135 Y143.87 E11.68295
G1 X159.889 Y144.303 E11.69951
G1 X159.752 Y144.531 E11.70836
G1 X159.44 Y145.022 E11.72771
G1 X158.905 Y145.771 E11.75832
G1 X158.077 Y146.71 E11.79996
G1 X157.787 Y147.002 E11.81365
G1 X157.111 Y147.626 E11.84425
G1 X156.03 Y148.428 E11.88902
G1 X155.638 Y148.682 E11.90455
G1 X154.844 Y149.148 E11.93517
G1 X153.612 Y149.705 E11.98014
G1 X153.405 Y149.783 E11.9875
G1 X152.812 Y149.989 E12.00838
G1 X151.927 Y150.244 E12.03901
G1 X150.645 Y150.47 E12.08231
G1 X150.197 Y150.521 E12.09731
G1 X149.192 Y150.587 E12.13081
G1 X148.396 Y150.6 E12.15728
G1 X86.707 Y150.6 E14.20907
G1 X86.555 Y150.599 E14.21412
G1 X85.858 Y150.589 E14.23731
G1 X85.024 Y150.544 E14.26509
G1 X84.27 Y150.462 E14.29031
G1 X83.362 Y150.309 E14.32094
G1 X82.391 Y150.052 E14.35435
G1 X82.169 Y149.982 E14.36209
G1 X81.525 Y149.758 E14.38477
G1 X80.674 Y149.406 E14.4154
G1 X79.603 Y148.83 E14.45585
G1 X79.24 Y148.607 E14.47001
G1 X78.477 Y148.091 E14.50065
G1 X77.59 Y147.356 E14.53896
G1 X77.403 Y147.183 E14.54744
G1 X77.011 Y146.802 E14.56562
G1 X76.855 Y146.642 E14.57305
G1 X76.242 Y145.955 E14.60368
G1 X75.487 Y144.909 E14.64658
G1 X75.258 Y144.547 E14.66083
G1 X74.8 Y143.748 E14.69146
G1 X74.413 Y142.913 E14.72207
G1 X74.233 Y142.444 E14.73878
G1 X74.077 Y142.007 E14.75421
G1 X73.805 Y141.127 E14.78485
G1 X73.611 Y140.227 E14.81547
G1 X73.541 Y139.748 E14.83157
G1 X73.509 Y139.49 E14.84022
G1 X73.457 Y138.967 E14.8577
G1 X73.438 Y138.71 E14.86627
G1 X73.41 Y138.07 E14.88757
G1 X73.401 Y137.331 E14.91216
G1 X73.401 Y97.558 E16.23501
G1 X73.411 Y96.851 E16.25853
G1 X73.475 Y95.825 E16.29272
G1 X73.522 Y95.404 E16.30681
G1 X73.664 Y94.494 E16.33744
G1 X74.006 Y93.214 E16.38151
G1 X74.149 Y92.787 E16.39649
G1 X74.479 Y91.927 E16.42712
G1 X74.882 Y91.1 E16.45772
G1 X75.111 Y90.699 E16.47308
G1 X75.258 Y90.454 E16.48258
G1 X75.804 Y89.633 E16.51538
G1 X75.959 Y89.422 E16.52408
G1 X76.536 Y88.704 E16.55472
G1 X77.055 Y88.154 E16.57987
G1 X77.29 Y87.922 E16.59086
G1 X77.973 Y87.304 E16.62149
G1 X78.676 Y86.769 E16.65087
G1 X78.841 Y86.654 E16.65756
G1 X79.373 Y86.306 E16.67871
G1 X79.602 Y86.166 E16.68764
G1 X80.408 Y85.721 E16.71826
G1 X81.485 Y85.257 E16.75726
G1 X81.687 Y85.183 E16.76442
G1 X82.229 Y84.998 E16.78346
G1 X83.115 Y84.747 E16.81409
G1 X84.331 Y84.534 E16.85515
G1 X84.77 Y84.483 E16.86985
G1 X85.832 Y84.413 E16.90525
G1 X86.719 Y84.401 E16.93476
G1 X148.293 Y84.4 E18.98272
G1 X148.445 Y84.401 E18.98777
G1 X149.143 Y84.411 E19.01099
G0 F6000 X149.149 Y84.011
G1 F1200 X150.019 Y84.058 E19.03997
G1 X150.779 Y84.141 E19.0654
G1 X151.704 Y84.297 E19.0966
G1 X152.729 Y84.566 E19.13184
G1 X152.951 Y84.636 E19.13958
G1 X153.612 Y84.866 E19.16286
G1 X154.479 Y85.224 E19.19406
G1 X155.595 Y85.822 E19.23617
G1 X155.959 Y86.045 E19.25037
G1 X156.737 Y86.569 E19.28157
G1 X157.639 Y87.31 E19.32039
G1 X157.804 Y87.461 E19.32783
G1 X158.223 Y87.865 E19.34719
G1 X158.396 Y88.041 E19.3554
G1 X159.024 Y88.737 E19.38658
G1 X159.712 Y89.663 E19.42495
G1 X159.823 Y89.83 E19.43162
G1 X160.187 Y90.412 E19.45445
G1 X160.639 Y91.234 E19.48565
G1 X161.144 Y92.423 E19.52862
G1 X161.301 Y92.863 E19.54415
G1 X161.578 Y93.759 E19.57535
G1 X161.778 Y94.676 E19.60656
G1 X161.861 Y95.236 E19.62539
G1 X161.889 Y95.467 E19.63313
G1 X161.942 Y96.02 E19.65161
G1 X161.967 Y96.376 E19.66348
G1 X161.993 Y96.985 E19.68375
G1 X162 Y97.555 E19.70271
G1 X161.999 Y137.436 E21.02916
G1 X161.989 Y138.145 E21.05274
G1 X161.942 Y139.014 E21.08169
G1 X161.859 Y139.779 E21.10728
G1 X161.703 Y140.704 E21.13848
G1 X161.383 Y141.885 E21.17918
G1 X161.243 Y142.307 E21.19397
G1 X160.91 Y143.183 E21.22514
G1 X160.504 Y144.029 E21.25635
G1 X160.232 Y144.509 E21.2747
G1 X160.095 Y144.737 E21.28354
G1 X159.775 Y145.241 E21.3034
G1 X159.23 Y146.004 E21.33459
G1 X158.361 Y146.991 E21.37833
G1 X158.071 Y147.283 E21.39201
G1 X157.382 Y147.92 E21.42322
G1 X156.642 Y148.496 E21.45441
G1 X156.248 Y148.763 E21.47024
G1 X155.856 Y149.017 E21.48578
G1 X155.048 Y149.493 E21.51697
G1 X154.202 Y149.899 E21.54818
G1 X153.546 Y150.157 E21.57163
G1 X152.939 Y150.369 E21.59301
G1 X152.037 Y150.628 E21.62422
G1 X150.69 Y150.867 E21.66972
G1 X150.242 Y150.918 E21.68472
G1 X149.199 Y150.987 E21.71949
G1 X148.396 Y151 E21.7462
G1 X86.707 Y151 E23.79798
G1 X86.549 Y150.999 E23.80324
G1 X85.852 Y150.989 E23.82642
G1 X84.986 Y150.942 E23.85527
G1 X84.221 Y150.859 E23.88086
G1 X83.296 Y150.703 E23.91206
G1 X82.271 Y150.434 E23.94731
G1 X82.049 Y150.364 E23.95505
G1 X81.388 Y150.134 E23.97833
G1 X80.521 Y149.776 E24.00953
G1 X79.393 Y149.171 E24.0521
G1 X79.03 Y148.948 E24.06627
G1 X78.253 Y148.423 E24.09746
G1 X77.318 Y147.65 E24.13781
G1 X77.131 Y147.477 E24.14628
G1 X76.725 Y147.081 E24.16514
G1 X76.569 Y146.921 E24.17258
G1 X75.943 Y146.222 E24.20379
G1 X75.149 Y145.123 E24.24888
G1 X74.92 Y144.761 E24.26313
G1 X74.453 Y143.947 E24.29434
G1 X74.057 Y143.097 E24.32553
G1 X73.856 Y142.578 E24.34404
G1 X73.7 Y142.141 E24.35947
G1 X73.423 Y141.245 E24.39067
G1 X73.223 Y140.329 E24.42185
G1 X73.144 Y139.797 E24.43974
G1 X73.112 Y139.539 E24.44839
G1 X73.058 Y138.996 E24.46653
G1 X73.039 Y138.739 E24.47511
G1 X73.01 Y138.075 E24.49721
G1 X73.001 Y137.331 E24.52196
G1 X73.001 Y97.552 E25.84501
G1 X73.011 Y96.845 E25.86853
G1 X73.078 Y95.781 E25.90399
G1 X73.125 Y95.36 E25.91808
G1 X73.269 Y94.433 E25.94928
G1 X73.626 Y93.087 E25.9956
G1 X73.769 Y92.66 E26.01057
G1 X74.105 Y91.784 E26.04178
G1 X74.514 Y90.94 E26.07297
G1 X74.768 Y90.494 E26.09005
G1 X74.915 Y90.249 E26.09955
G1 X75.482 Y89.396 E26.13362
G1 X75.637 Y89.185 E26.14232
G1 X76.224 Y88.453 E26.17353
G1 X76.774 Y87.869 E26.20021
G1 X77.009 Y87.637 E26.2112
G1 X77.704 Y87.007 E26.2424
G1 X78.447 Y86.441 E26.27346
G1 X78.612 Y86.326 E26.28015
G1 X79.164 Y85.965 E26.30209
G1 X79.393 Y85.825 E26.31102
G1 X80.214 Y85.37 E26.34223
G1 X81.347 Y84.881 E26.38328
G1 X81.549 Y84.807 E26.39043
G1 X82.104 Y84.618 E26.40993
G1 X83.006 Y84.362 E26.44112
G1 X84.285 Y84.136 E26.48432
G1 X84.724 Y84.085 E26.49902
G1 X85.826 Y84.013 E26.53575
G1 X86.719 Y84.001 E26.56545
G1 X148.293 Y84 E28.61341
G1 X148.451 Y84.001 E28.61867
G1 X149.149 Y84.011 E28.64189
G1 F2700 E23.64189
;MESH:bottom.stl
G0 F6000 X148.648 Y94.336
G0 X148.649 Y95.42
G0 X85.725 Y95.81
G0 X85.23 Y96.048
G0 X84.895 Y96.471
G0 X84.771 Y97.051
G0 X84.807 Y138.277
G0 X84.999 Y138.673
G0 X85.687 Y139.361
;TYPE:WALL-INNER
G1 F2700 E28.64189
G1 F1200 X85.393 Y139.258 E28.65225
G1 X85.129 Y139.092 E28.66262
G1 X84.908 Y138.871 E28.67301
G1 X84.742 Y138.607 E28.68339
G1 X84.639 Y138.313 E28.69375
G1 X84.601 Y137.964 E28.70542
G1 X84.6 Y97.039 E30.06659
G1 X84.639 Y96.689 E30.07831
G1 X84.742 Y96.394 E30.0887
G1 X84.907 Y96.131 E30.09903
G1 X85.124 Y95.913 E30.10926
G1 X85.391 Y95.745 E30.11975
G1 X85.689 Y95.641 E30.13025
G1 X86.031 Y95.601 E30.1417
G1 X148.649 Y95.6 E32.22438
G1 X148.961 Y95.6 E32.23476
G1 X149.313 Y95.639 E32.24654
G1 X149.607 Y95.742 E32.2569
G1 X149.871 Y95.908 E32.26727
G1 X150.092 Y96.129 E32.27767
G1 X150.258 Y96.393 E32.28804
G1 X150.361 Y96.687 E32.2984
G1 X150.399 Y97.036 E32.31008
G1 X150.4 Y97.465 E32.32435
G1 X150.4 Y137.961 E33.67125
G1 X150.361 Y138.311 E33.68296
G1 X150.258 Y138.606 E33.69335
G1 X150.093 Y138.869 E33.70368
G1 X149.876 Y139.087 E33.71391
G1 X149.609 Y139.255 E33.7244
G1 X149.311 Y139.359 E33.7349
G1 X148.968 Y139.399 E33.74639
G1 X148.648 Y139.4 E33.75703
G1 X86.039 Y139.4 E35.83941
G1 X85.687 Y139.361 E35.85119
G0 F6000 X85.6 Y139.754
;TYPE:WALL-OUTER
G1 F1200 X85.216 Y139.619 E35.86473
G1 X84.878 Y139.407 E35.878
G1 X84.593 Y139.122 E35.89141
G1 X84.381 Y138.784 E35.90468
G1 X84.246 Y138.4 E35.91822
G1 X84.201 Y137.99 E35.93193
G1 X84.2 Y97.013 E37.29483
G1 X84.246 Y96.6 E37.30866
G1 X84.379 Y96.219 E37.32208
G1 X84.59 Y95.883 E37.33527
G1 X84.876 Y95.596 E37.34875
G1 X85.216 Y95.382 E37.36211
G1 X85.596 Y95.249 E37.3755
G1 X86.011 Y95.201 E37.3894
G1 X148.649 Y95.2 E39.47275
G1 X148.987 Y95.2 E39.48399
G1 X149.4 Y95.246 E39.49781
G1 X149.784 Y95.381 E39.51135
G1 X150.122 Y95.593 E39.52462
G1 X150.407 Y95.878 E39.53802
G1 X150.619 Y96.216 E39.55129
G1 X150.754 Y96.6 E39.56483
G1 X150.799 Y97.01 E39.57855
G1 X150.8 Y97.464 E39.59365
G1 X150.8 Y137.987 E40.94145
G1 X150.754 Y138.4 E40.95527
G1 X150.621 Y138.781 E40.96869
G1 X150.41 Y139.117 E40.98189
G1 X150.124 Y139.404 E40.99537
G1 X149.784 Y139.618 E41.00873
G1 X149.404 Y139.751 E41.02212
G1 X148.988 Y139.799 E41.03605
G1 X148.649 Y139.8 E41.04732
G1 X86.013 Y139.8 E43.1306
G1 X85.6 Y139.754 E43.14443
G0 F6000 X85.697 Y139.326
G0 X85.773 Y138.978
;TYPE:SKIN
G1 F1200 X85.562 Y138.904 E43.15186
G1 X85.371 Y138.784 E43.15937
G1 X85.216 Y138.629 E43.16666
G1 X85.097 Y138.438 E43.17414
G1 X85.023 Y138.228 E43.18155
G1 X84.991 Y137.939 E43.19122
G1 X84.99 Y97.064 E44.55073
G1 X85.022 Y96.775 E44.5604
G1 X85.097 Y96.562 E44.56791
G1 X85.212 Y96.378 E44.57512
G1 X85.37 Y96.219 E44.58258
G1 X85.562 Y96.099 E44.59011
G1 X85.775 Y96.024 E44.59762
G1 X86.058 Y95.991 E44.6071
G1 X148.649 Y95.99 E46.68888
G1 X148.936 Y95.99 E46.69843
G1 X149.227 Y96.022 E46.70817
G1 X149.438 Y96.096 E46.7156
G1 X149.629 Y96.216 E46.7231
G1 X149.784 Y96.371 E46.7304
G1 X149.903 Y96.562 E46.73788
G1 X149.977 Y96.772 E46.74529
G1 X150.009 Y97.061 E46.75496
G1 X150.01 Y97.465 E46.76839
G1 X150.01 Y137.936 E48.11446
G1 X149.978 Y138.225 E48.12414
G1 X149.903 Y138.438 E48.13165
G1 X149.788 Y138.622 E48.13886
G1 X149.63 Y138.781 E48.14632
G1 X149.438 Y138.901 E48.15385
G1 X149.225 Y138.976 E48.16136
G1 X148.939 Y139.009 E48.17094
G1 X148.646 Y139.01 E48.18068
G1 X86.064 Y139.01 E50.26217
G1 X85.773 Y138.978 E50.2719
G0 F6000 X85.501 Y138.676
G1 F1200 X85.323 Y138.497 E50.2803
G0 F6000 X85.15 Y137.759
G1 F1200 X86.24 Y138.848 E50.33155
G0 F6000 X86.805 Y138.848
G1 F1200 X85.15 Y137.193 E50.40939
G0 F6000 X85.15 Y136.627
G1 F1200 X87.371 Y138.848 E50.51386
G0 F6000 X87.937 Y138.848
G1 F1200 X85.15 Y136.062 E50.64493
G0 F6000 X85.15 Y135.496
G1 F1200 X88.502 Y138.848 E50.8026
G0 F6000 X89.068 Y138.848
G1 F1200 X85.15 Y134.93 E50.98689
G0 F6000 X85.15 Y134.365
G1 F1200 X89.634 Y138.848 E51.19778
G0 F6000 X90.199 Y138.848
G1 F1200 X85.15 Y133.799 E51.43527
G0 F6000 X85.15 Y133.233
G1 F1200 X90.765 Y138.848 E51.69938
G0 F6000 X91.331 Y138.848
G1 F1200 X85.15 Y132.668 E51.99009
G0 F6000 X85.15 Y132.102
G1 F1200 X91.897 Y138.848 E52.30743
G0 F6000 X92.462 Y138.848
G1 F1200 X85.15 Y131.536 E52.65136
G0 F6000 X85.15 Y130.971
G1 F1200 X93.028 Y138.848 E53.02189
G0 F6000 X93.594 Y138.848
G1 F1200 X85.15 Y130.405 E53.41905
G0 F6000 X85.15 Y129.839
